lebedan/SENTIMENT_HYBRID_GARCH_LSTM/Predictions/mass_analyzer_Hybrid_LSTM_prediction_results.csv
Ticker,NN_Social_Media_MSE,NN_Social_Media_RMSPE,NN_Social_Media_MAE,NN_Social_Media_LOG_MSE,NN_Social_Media_LOG_RMSPE,NN_Social_Media_LOG_MAE,NN_Social_Media_Violation_Ratio,NN_Social_Media_Kupiec,NN_Social_Media_Christoffersen,NN_Social_Media_Joint,NN_Social_Media_QL,NN_Social_Media_FL,NN_Social_Media_SL,NN_MSE,NN_RMSPE,NN_MAE,NN_LOG_MSE,NN_LOG_RMSPE,NN_LOG_MAE,NN_Violation_Ratio,NN_Kupiec,NN_Christoffersen,NN_Joint,NN_QL,NN_FL,NN_SL,GARCH_MSE,GARCH_RMSPE,GARCH_MAE,GARCH_LOG_MSE,GARCH_LOG_RMSPE,GARCH_LOG_MAE,GARCH_Violation_Ratio,GARCH_Kupiec,GARCH_Christoffersen,GARCH_Joint,GARCH_QL,GARCH_FL,GARCH_SL,GARCH_X_MSE,GARCH_X_RMSPE,GARCH_X_MAE,GARCH_X_LOG_MSE,GARCH_X_LOG_RMSPE,GARCH_X_LOG_MAE,GARCH_X_Violation_Ratio,GARCH_X_Kupiec,GARCH_X_Christoffersen,GARCH_X_Joint,GARCH_X_QL,GARCH_X_FL,GARCH_X_SL
MSFT UW Equity,0.00031909916780075825,0.9680267162668912,0.0165761186774647,0.0027422653969731,104.5372885742062,0.0479491106060962,0.8951048951048944,Fail to reject H0,Reject H0,Reject H0,0.0223836925234314,0.0675066329996598,-0.0083539539049989,0.0003198135893204,0.9780830298383584,0.0166756344283521,0.0022644133881018,93.15570540857824,0.0409117155236926,1.062937062937062,Fail to reject H0,Reject H0,Reject H0,0.026578340774444,0.0645545364806419,-0.007752699122283,0.0003229217091302,0.9820900348794224,0.0167507207861116,0.0018973492691554,57.09194420480356,0.0386250368821826,0.1118881118881118,Reject H0,Reject H0,Reject H0,0.0027974238904214,0.0394212704508639,-0.0083988195317509,0.0003253822689641,0.9779619466604624,0.0167426502908417,0.0019352358339339,63.90158934912283,0.0393959446960722,0.9510489510489504,Fail to reject H0,Reject H0,Reject H0,0.0237868283372785,0.0602091792830284,-0.0080837397285847
AAPL UW Equity,0.000255366771049495,0.9661158755399222,0.014621324527154,0.0026370307000856,inf,0.0472888491462663,0.3356643356643354,Reject H0,Fail to reject H0,Reject H0,0.0083927875520872,0.0546797041363847,-0.0087275784254762,0.0002600360965434,0.9807494306395348,0.0147999717899386,0.0017427197642464,inf,0.0367841141159453,0.5034965034965031,Reject H0,Reject H0,Reject H0,0.0125889787474383,0.0481862211024724,-0.0081695694001758,0.0002605065936426,0.9821728794540496,0.014817631148799,0.0016557980787195,inf,0.0361776664776664,0.2237762237762236,Reject H0,Reject H0,Reject H0,0.0055944745223149,0.0409177930535962,-0.0084064593221669,0.0002607621691309,0.9700643422786964,0.014725031477788,0.0021419744013774,inf,0.0418139706218178,0.8951048951048944,Fail to reject H0,Reject H0,Reject H0,0.0223793687368455,0.0626024120202143,-0.0083485868738072
NVDA UW Equity,0.001029422317969414,0.9351414941032834,0.0291973006405791,0.0097698531136128,inf,0.0909791879518095,0.1680672268907561,Reject H0,Fail to reject H0,Reject H0,0.0042032672194007,0.089144463099127,-0.0056320156546696,0.0010367035540346,0.9594378569071634,0.0296189485839609,0.0077839455919662,inf,0.0752464665745375,0.8963585434173662,Fail to reject H0,Reject H0,Reject H0,0.0224125585003716,0.090763057631011,-0.0060495816887567,0.0010566814669391,0.9660258502048708,0.0298959380686748,0.0065798750870145,inf,0.0710630806680237,0.0,Fail to reject H0,Reject H0,Fail to reject H0,0.0,0.0653854818568133,-0.0074321739662843,0.0010672445242795,0.9582637467767088,0.0298392097004289,0.0065509930881359,inf,0.0729864086557887,0.4481792717086831,Reject H0,Reject H0,Reject H0,0.01120724812004,0.0776013383237282,-0.0069690158514067
AMZN UW Equity,0.0005414649715781388,0.976067297484314,0.0216118772149075,0.0029767880998796,inf,0.0489252331072378,0.7832167832167826,Fail to reject H0,Reject H0,Fail to reject H0,0.0195847102820853,0.06595136494157,-0.0081457414142944,0.0005379322110891,0.9779804996021368,0.0215988592647391,0.0030466183678572,inf,0.0473653034147467,0.9510489510489504,Fail to reject H0,Reject H0,Fail to reject H0,0.0237793984158946,0.0686305207760761,-0.0077004077227506,0.0005382728446981,0.97750987319559,0.0215997580975151,0.0030580711751566,inf,0.0489833364821915,0.2237762237762236,Reject H0,Reject H0,Reject H0,0.0055944764049564,0.0528666582490158,-0.0084432467017806,0.0005428144819373,0.9703044836202068,0.0215520765164154,0.0033446465997016,inf,0.0512681579482961,1.678321678321677,Reject H0,Reject H0,Reject H0,0.0419825436775001,0.0892517935845046,-0.0074007851681842
GOOG UW Equity,0.0004504272097548516,0.9768011302068,0.019660308659157695,0.0024899808491508756,34.00854527189997,0.04501451374338582,1.0069930069930062,Fail to reject H0,Fail to reject H0,Fail to reject H0,0.0196012092427575638,0.06142092281735039,-0.008006402034145705,0.00045343568405918654,0.9810656361206838,0.019733231736594362,0.002540260117802385,33.97592533708514,0.0442387693000951,1.062937062937062,Fail to reject H0,Reject H0,Reject H0,0.02521248103979004,0.06748121894207703,-0.007607089532735239,0.00045467512399928266,0.9786881525503458,0.0197267264977377,0.0025014990418053707,31.164645301408232,0.045577503064075695,0.3356643356643354,Reject H0,Reject H0,Reject H0,0.008394357956251087,0.05197227143653664,-0.008628798355183976,0.0004597675729718402,0.9768267528379232,0.019757535089625616,0.0024434534830600186,38.00706630603717,0.045081308041941284,1.0069930069930062,Fail to reject H0,Reject H0,Reject H0,0.025210646953358857,0.06689106198485952,-0.007933019485111497
META UW Equity,0.0010208082360035954,0.9731111990302974,0.0260750247742671,0.0040815034587656,inf,0.0549815647146411,0.7272727272727267,Fail to reject H0,Fail to reject H0,Fail to reject H0,0.0183069603857832,0.0674528533854847,-0.0073885516109495,0.0009988065233478,0.974077153144194,0.0259556993309219,0.0047217212123622,inf,0.0571415224467261,0.7272727272727267,Fail to reject H0,Reject H0,Reject H0,0.0183149943792145,0.0696138965421449,-0.0069511569020841,0.0009673120741641,0.9687305075802816,0.0257279502727353,0.0059123557156528,inf,0.0625433585923571,0.0,Fail to reject H0,Reject H0,Fail to reject H0,0.0,0.0588457995570733,-0.007960747419114,0.0010160515495223,0.9459174320801078,0.0255794384029339,0.0068873019294487,inf,0.0683941968547728,0.8951048951048944,Fail to reject H0,Reject H0,Reject H0,0.022558063425052,0.0844296824778605,-0.0064026777008475
BRK_B UN Equity,9.175293396329865e-05,0.9802814359329118,0.0090032228075196,0.00099575923515,72.69045120040342,0.0280601917632646,1.0134128166915042,Fail to reject H0,Fail to reject H0,Fail to reject H0,0.0253365066867343,0.0519364253768308,-0.0075178390910348,9.264343392586918e-05,0.9864582172876328,0.0090534891409309,0.0007470265094071,61.49575142390168,0.0238131277056106,1.1326378539493285,Fail to reject H0,Reject H0,Reject H0,0.0283165795333207,0.0506645438415606,-0.0069016433428321,9.322460213610792e-05,0.9886806973555397,0.0090790981297261,0.0006140449393359,50.0447559743716,0.0224836740655214,0.0,Fail to reject H0,Reject H0,Fail to reject H0,0.0,0.0215348042980082,-0.0070686821284682,9.30555185080767e-05,0.9828481690263304,0.0090476821520957,0.0007658712938195,55.04922838529498,0.025510156429958,0.4172876304023841,Reject H0,Reject H0,Reject H0,0.0104323833324241,0.0347430108359261,-0.0075776257862545
LLY UN Equity,0.0003361939270499431,0.9699470938469208,0.0165964506140596,0.0026250117813248,124.0536774302764,0.0464661247192002,0.6655574043261225,Fail to reject H0,Fail to reject H0,Fail to reject H0,0.0166401982206278,0.0599856193936286,-0.008543940373913,0.0003383797564665,0.9785890060215112,0.0167006930862827,0.0020862665358135,108.43666535245522,0.0403689940542778,0.8652246256239593,Fail to reject H0,Reject H0,Reject H0,0.0216311301032753,0.0587190899891886,-0.0083269145574419,0.0003398433398228,0.9770398285801928,0.0167082129674698,0.0020853998521918,115.14850302134197,0.0415742929431272,0.1331114808652245,Reject H0,Reject H0,Reject H0,0.0033277880091302,0.0423377533918979,-0.0087743945251922,0.0003402225496213,0.9743178655552956,0.0166878714155819,0.002170696822646,108.48058889973116,0.042925623206817,0.3993344425956735,Reject H0,Reject H0,Reject H0,0.0099838877623528,0.0500223380186578,-0.0088260075403901
TSLA UW Equity,0.0012789449309966064,0.9410332219803739,0.0338434541962421,0.011100091551034466,inf,0.09733967136734932,0.8391608391608385,Fail to reject H0,Reject H0,Fail to reject H0,0.019592637557205308,0.10900835239518158,-0.005600483453932264,0.0012966191911930563,0.9601567175346131,0.034305485865492216,0.008879501581305323,inf,0.08261916531709908,1.0069930069930062,Fail to reject H0,Reject H0,Reject H0,0.0335912042910843,0.1107181125771127,-0.00548882146382271,0.001304622934834508,0.9586496472544447,0.03434779827749098,0.008608389416518071,inf,0.0849125707871294,0.4475524475524472,Reject H0,Reject H0,Reject H0,0.011193788385412542,0.09555343275358362,-0.006095466630334039,0.001309490550228399,0.9524485889798223,0.03342657187700883,0.009128421958860548,inf,0.08827523727543268,1.174825174825174,Fail to reject H0,Reject H0,Reject H0,0.028004374560075,0.1136720872256974,-0.0049872683919637
AVGO UW Equity,0.00046671526933125877,0.9673263065817256,0.0201606821104869,0.0038508544285877,85.87014976111733,0.0545471810244979,0.6716417910447755,Fail to reject H0,Fail to reject H0,Fail to reject H0,0.0167927003349504,0.0677561691637588,-0.0079843826483379,0.0004742497012257,0.9745332565934182,0.0203131861452897,0.003091927901767,75.16299685163364,0.0486859305489393,0.820895522388059,Fail to reject H0,Reject H0,Reject H0,0.0205242628489537,0.0653871720115376,-0.0079914420336312,0.0004752927889577,0.9754840437721092,0.0203355954209469,0.0031425016103196,71.35916313724054,0.049137707493409,0.1492537313432834,Reject H0,Reject H0,Reject H0,0.0037313472678697,0.0499096516984808,-0.0084926558838459,0.0004776267801728,0.9706613965713586,0.0203152451998133,0.0030693249754403,63.89613283708951,0.0507100669524222,0.3731343283582086,Reject H0,Reject H0,Reject H0,0.0093312354129542,0.0565397021173725,-0.0085364591444756
V UN Equity,0.0001261878227853358,0.9714098425891114,0.0104581422666126,0.0016596547107643,inf,0.0365691022542691,0.1772525849335301,Reject H0,Fail to reject H0,Reject H0,0.0044313437353121,0.0398105240870878,-0.0085135943845395,0.0001294948024976,0.983765781836396,0.0105866921675702,0.0009944569731047,inf,0.028824926516506,0.5908419497784337,Fail to reject H0,Reject H0,Reject H0,0.0147713663184703,0.0420887192443254,-0.0079623316203649,0.0001297273615575,0.9850432983252566,0.0105989736630644,0.0009329460613852,inf,0.0278284527562708,0.1181683899556867,Reject H0,Reject H0,Reject H0,0.0029542099904518,0.0296227687005272,-0.0078896099770683,0.0001281162684491,0.972923334999053,0.0104926778377917,0.0014656998632625,inf,0.0351234276344657,0.4135893648449036,Reject H0,Reject H0,Reject H0,0.0103402757021908,0.0440136039816136,-0.0084831301009432
JPM UN Equity,0.00018503591465581813,0.9655988697633586,0.0122296469607858,0.0023829927804464,57.85893009792606,0.0427218146349407,0.7887323943661966,Fail to reject H0,Fail to reject H0,Fail to reject H0,0.0197215128065173,0.0601512764393504,-0.0080818342174935,0.0001905732382217,0.9821470394046244,0.0124276636775967,0.0013670559037221,42.20537787685989,0.0318138353680861,1.0140845070422526,Fail to reject H0,Reject H0,Reject H0,0.0253565136584363,0.0545724657434788,-0.0074535363004394,0.000190701704605,0.9828083736673466,0.0124384442651338,0.0013133939462896,33.516754511932454,0.0323775789792716,0.2253521126760561,Reject H0,Reject H0,Reject H0,0.0056338892429358,0.0362066296145132,-0.0081821540614443,0.0001910101840346,0.9771541798565544,0.0124017473139051,0.0014626901677862,53.43962912588342,0.0349938238055354,0.4507042253521123,Reject H0,Reject H0,Reject H0,0.0112681938788978,0.0443313215902838,-0.0084584892458328
UNH UN Equity,0.0001852984853394667,0.9598627480997304,0.0125455965925333,0.0025284520794742,86.14887118216316,0.0465195287416169,0.135135135135135,Reject H0,Reject H0,Reject H0,0.0033794555469051,0.0496632696842535,-0.0087724653327046,0.0001907641281132,0.9810707577005215,0.0127769406929078,0.0014017710928497,61.572173606646345,0.0332936172481884,0.945945945945945,Fail to reject H0,Reject H0,Reject H0,0.0236556613218522,0.055814562905652,-0.00787325507051,0.0001910563414733,0.9791716763174056,0.0127706922522116,0.0014271009040159,56.82294214210463,0.0352019742472613,0.405405405405405,Reject H0,Reject H0,Reject H0,0.0101367894593405,0.0447244629014831,-0.0086325415435744,0.0001911887216534,0.9756813233482968,0.012752313568831,0.0015156481837749,66.74038374619899,0.0365772544273582,0.54054054054054,Fail to reject H0,Reject H0,Reject H0,0.0135181415780778,0.0492398371726244,-0.0086534322834658
WMT UN Equity,0.00012386958248243677,0.9826054871807582,0.0100207945991197,0.0009362676990937,51.009522195565424,0.0273351889767467,0.7887323943661966,Fail to reject H0,Reject H0,Reject H0,0.0197335452330446,0.0452362793954039,-0.0073747401940232,0.0001237805035636,0.9855664274001548,0.01003715020405,0.0008527536780696,48.35261080366846,0.0252824942488794,1.408450704225351,Fail to reject H0,Reject H0,Reject H0,0.0352263001713157,0.0584030391338894,-0.0067850668888704,0.0001237571589727,0.9861072904617224,0.0100410381364833,0.0008195452104293,44.01495340632499,0.0260256828012116,0.112676056338028,Reject H0,Reject H0,Reject H0,0.0028180312242292,0.0276343842197246,-0.0075828349682742,0.0001241111770933,0.9773037387259832,0.0099983932058855,0.0010434680751669,58.51735213074186,0.0288278541497571,0.4507042253521123,Reject H0,Reject H0,Reject H0,0.0112791067494833,0.0385062012708257,-0.007624770971423
MA UN Equity,0.00014031137621075412,0.9633842283125588,0.0110035832846655,0.0020044468536282,120.7523546670588,0.0413424581554756,0.481927710843373,Reject H0,Fail to reject H0,Reject H0,0.0120494746118508,0.0519144315273655,-0.0087005904471077,0.0001424089009232,0.980647131580427,0.0111497495155104,0.0013051369832129,94.0491129513916,0.0319598938227588,0.481927710843373,Reject H0,Reject H0,Reject H0,0.0120516129327574,0.0424245082583924,-0.0079037507237735,0.0001437763015333,0.9827856718292955,0.0111865864093884,0.0011032556505056,74.26901165640594,0.030711861815923,0.2409638554216865,Reject H0,Reject H0,Reject H0,0.0060242444706846,0.0354261587597398,-0.008279562524793,0.0001411779085498,0.9689703487247324,0.0110520633483846,0.0017728555224041,71.36132391287077,0.0388452224936304,0.3614457831325298,Reject H0,Reject H0,Reject H0,0.0090380730485032,0.0463830850702576,-0.0086607893600054
XOM UN Equity,0.0002640288766085658,0.9756807898248075,0.0156567774247869,0.0021445884102267,inf,0.042799021757104,0.5042016806722684,Reject H0,Reject H0,Reject H0,0.012606332361912,0.0544381702637315,-0.0087126664736238,0.0002657944891233,0.9816679642859264,0.0157316359109635,0.001769784381102,inf,0.0382685055865099,0.72829131652661,Fail to reject H0,Reject H0,Reject H0,0.018208897286777,0.0552359170202305,-0.0084189806508207,0.0002662187811598,0.9817306206877116,0.0157379596666034,0.0017266035862206,inf,0.0379731077844981,0.2240896358543415,Reject H0,Reject H0,Reject H0,0.0056022690324015,0.0429540721074595,-0.0086106733290682,0.0002639066110672,0.975568292321299,0.0156533637354262,0.0021376197438104,inf,0.0425863325697011,0.3921568627450977,Reject H0,Reject H0,Reject H0,0.0098040559708822,0.0516148567471279,-0.0087303267386987
JNJ UN Equity,0.00010120061150287607,0.9783383589423406,0.0094449158366384,0.0010446302696407,inf,0.0297659806889916,0.614439324116743,Fail to reject H0,Reject H0,Reject H0,0.0153619655805792,0.0449419789092188,-0.0080206365210534,0.0001027817505594,0.9902665405276307,0.0095412821832459,0.0005579093881974,inf,0.0212988002987231,1.1674347158218117,Fail to reject H0,Reject H0,Reject H0,0.0291878931574729,0.0498577008631749,-0.0066438530217328,0.0001020452887087,0.986250357292614,0.0095049867488534,0.0007492513230311,inf,0.0252130827815937,0.1228878648233486,Reject H0,Reject H0,Reject H0,0.0030722144812554,0.0284895507047579,-0.0076125965028488,0.0001023562964705,0.9853340313771354,0.0095063339402762,0.0007445479493024,inf,0.0253002601823343,0.7987711213517659,Fail to reject H0,Reject H0,Reject H0,0.0199710259058794,0.044847554370362,-0.0075068109630139
PG UN Equity,9.05176792261799e-05,0.9718714024207832,0.0090499901166284,0.0013319395311208,inf,0.0326402803761118,0.3490401396160555,Reject H0,Fail to reject H0,Reject H0,0.0087261040178549,0.0406859179365847,-0.0080920285334179,9.287903624862897e-05,0.9864404602498966,0.0091798913597152,0.0007033514886583,inf,0.024046590157516,0.4188481675392666,Reject H0,Reject H0,Reject H0,0.0104723395564283,0.0336645408366828,-0.0072011605284087,9.279951676671148e-05,0.98546171683505,0.009174096843803,0.0007298771306304,inf,0.0251174252688866,0.0,Fail to reject H0,Reject H0,Fail to reject H0,0.0,0.0246543586022172,-0.0076459824795515,9.222996049417622e-05,0.9807164503593788,0.0091377821083127,0.0009128028301101,inf,0.0281749273644953,0.3490401396160555,Reject H0,Reject H0,Reject H0,0.0087266485324716,0.0361202091326814,-0.0080173270214092
HD UN Equity,0.00018356611463957263,0.968905483492565,0.0127639405966532,0.0021182876090368,54.20900434882187,0.0411254756247721,0.3430531732418522,Reject H0,Fail to reject H0,Reject H0,0.0085772465845234,0.0488602796190005,-0.008430722763317,0.0001843032111632,0.9745784499560805,0.0128206447517808,0.0018767296466949,50.15142479074098,0.0381238021762847,0.6861063464837044,Fail to reject H0,Reject H0,Reject H0,0.0171574015755772,0.0539897603587425,-0.0080287234936931,0.0001874452726247,0.9818303209913064,0.0129229518875501,0.0013523292734874,37.82010811884629,0.0339012346131233,0.1372212692967408,Reject H0,Reject H0,Reject H0,0.0034311998775604,0.0365818656182346,-0.0084729948860693,0.0001861237488592,0.9740728649147444,0.0128490411884147,0.0017307466974271,52.32044469374832,0.0389844970536904,0.2744425385934817,Reject H0,Reject H0,Reject H0,0.0068645118014752,0.0448817572086981,-0.0088151608983285
MRK UN Equity,0.00014628153457074873,0.9775704241903856,0.0115470063247428,0.0013627587659619,inf,0.0334418452979232,0.6033182503770734,Fail to reject H0,Fail to reject H0,Fail to reject H0,0.0150845394585258,0.0474689004483007,-0.0081445026154969,0.0001473388419301,0.9834530610224844,0.0116017542504748,0.0010945375134511,inf,0.0299310559812124,1.085972850678732,Fail to reject H0,Reject H0,Reject H0,0.0271499915299569,0.0556675053173168,-0.0078672314966862,0.0001475927966065,0.9834533027204236,0.0116064334526677,0.0010667744479499,inf,0.0303178905107615,0.1206636500754146,Reject H0,Reject H0,Reject H0,0.0030165918455401,0.0326437698400238,-0.0082704225844498,0.0001471486794765,0.9805760439715124,0.0115808407028071,0.0011806848434829,inf,0.0319313944024495,0.361990950226244,Reject H0,Reject H0,Reject H0,0.0090497968571209,0.0401213518919571,-0.0084084041036731
COST UW Equity,0.0001460990659448568,0.9654935699005408,0.0111172287108627,0.0019225877057881,inf,0.0413820166385518,0.3883495145631064,Reject H0,Fail to reject H0,Reject H0,0.0097207049049097,0.0485027094408855,-0.0088370942257495,0.0001479678698084,0.976364047865238,0.0112167366341139,0.0014280433398001,inf,0.0337426989348698,0.8737864077669895,Fail to reject H0,Fail to reject H0,Fail to reject H0,0.0218639517719063,0.0528049524424355,-0.0077459395144826,0.0001491501783166,0.9819873602872292,0.0112752127799037,0.0011103345194952,inf,0.0310917053725202,0.3883495145631064,Reject H0,Reject H0,Reject H0,0.0097122319944155,0.0382790640060587,-0.0082781266436405,0.0001478597052727,0.9733752224169032,0.0111979840864718,0.0015040252237577,inf,0.0367139782067734,0.3883495145631064,Reject H0,Reject H0,Reject H0,0.0097255962128703,0.0437514860881127,-0.0086543722414225
ORCL UN Equity,0.00040729139987933467,0.970101798864972,0.017452614516358,0.0027426177976994,inf,0.0471875645659705,0.6271777003484316,Fail to reject H0,Fail to reject H0,Fail to reject H0,0.0157385339520477,0.0594868625363849,-0.0077293847133322,0.0004013867376425,0.9768501678426372,0.0174638722412037,0.0027099794324202,inf,0.0448350525636271,0.8362369337979088,Fail to reject H0,Reject H0,Reject H0,0.0209787081747914,0.0620280459454385,-0.0073950556367225,0.0004065903850289,0.976799723194234,0.0175179714897647,0.0023486053532893,inf,0.0439466434376161,0.4181184668989544,Reject H0,Reject H0,Reject H0,0.0104604267047121,0.0515631029553009,-0.0086726787698559,0.0004104105670645,0.970773217158084,0.0174930780660568,0.0025225066092281,inf,0.0459196683422351,0.5574912891986058,Fail to reject H0,Reject H0,Reject H0,0.0140070142753429,0.056443858438941,-0.0081686413825386
CVX UN Equity,0.0002285633184399059,0.976322299939135,0.0144183395310238,0.0018801207020303,59.33590922440498,0.0376531211526207,1.7291066282420733,Reject H0,Fail to reject H0,Reject H0,0.0432399099307812,0.0795285713780987,-0.0074276168769729,0.0002305484147651,0.9845039151242622,0.0145148435010296,0.0013747119770778,50.01110986220297,0.031320905925688,2.3631123919308337,Reject H0,Reject H0,Reject H0,0.059088473114406,0.0886373768466928,-0.0069522341686674,0.0002295134377853,0.9810886767405596,0.0144718949924905,0.0015803792446873,44.69236534795155,0.0368679613199658,0.1152737752161382,Reject H0,Reject H0,Reject H0,0.0028819491050305,0.0398676527559475,-0.0087108785330422,0.0002284105011188,0.9744982321501462,0.0144030883797812,0.0019430717000604,49.874617332011525,0.0406956490075673,0.5763688760806911,Fail to reject H0,Reject H0,Reject H0,0.0144132510348252,0.0546438610329762,-0.0086182898243306
AMD UW Equity,0.0010237616807038275,0.9468421622692692,0.0302060227565078,0.0084614293161755,62.005426655545605,0.0848146253698762,0.1118881118881118,Reject H0,Reject H0,Reject H0,0.0027978130564894,0.0840131930740634,-0.0062175048512275,0.0010403072419871,0.9663690142781116,0.0306287424488557,0.0063878341605489,52.32798823064866,0.069946206913699,1.3426573426573416,Fail to reject H0,Fail to reject H0,Fail to reject H0,0.0335832434125451,0.0979585972437437,-0.0061476201564797,0.0010430648145121,0.965730802338404,0.0306534321224218,0.0064176615615346,45.96444403492378,0.0722096521167869,0.1118881118881118,Reject H0,Reject H0,Reject H0,0.002797413166442,0.0714231941227177,-0.0073631615214397,0.0010483007410551,0.9605910743177516,0.0306144710012385,0.0064241807418976,47.84007621183117,0.0729581541875736,0.559440559440559,Reject H0,Reject H0,Reject H0,0.0139865719070845,0.082655528015604,-0.0069920410870294
CRM UN Equity,0.00045468813217667544,0.9724616718917876,0.0194623283503486,0.0029868450235622,52.025277997265576,0.048615241821312,0.7132243684992565,Fail to reject H0,Reject H0,Reject H0,0.0178354996270033,0.0629955976089905,-0.0080762623123981,0.0004522918389354,0.9791687167654616,0.0195123966502159,0.0027242683008301,49.41122796540257,0.0440709715151082,0.7726597325408612,Fail to reject H0,Reject H0,Reject H0,0.0193180948334563,0.0602663234741733,-0.0077411366078666,0.000452739123755,0.9715752143806082,0.0194331267550228,0.003205980062196,42.44846564925388,0.0494635497215362,0.1188707280832094,Reject H0,Reject H0,Reject H0,0.0029718010245614,0.0499442835711046,-0.0084557780686761,0.0004509160559592,0.9611327170774332,0.0192946561052992,0.0038703572277086,57.49860029205679,0.0554313117204917,0.6537890044576518,Fail to reject H0,Reject H0,Reject H0,0.0163549067809356,0.0682610014137844,-0.0079118596925979
BAC UN Equity,0.0002929265865067779,0.9699964174904228,0.0159809042041895,0.0025589723900477,inf,0.0453904041184706,0.9142857142857136,Fail to reject H0,Reject H0,Reject H0,0.0228633997970722,0.0669883614298418,-0.0082139884692057,0.0002954227514547,0.982472951488772,0.016126081391655,0.0018186192099172,inf,0.0367928899484741,1.4857142857142844,Fail to reject H0,Reject H0,Reject H0,0.0371462845267867,0.0722116783684791,-0.0077520185756776,0.0002957922212295,0.9798152315198728,0.0161062448288732,0.0018833531285436,inf,0.0396174361205109,0.0,Fail to reject H0,Reject H0,Fail to reject H0,0.0,0.0394535141201002,-0.0086984271645204,0.0002956722383662,0.9751247331718154,0.016065443405811,0.00207971173736,inf,0.0422891077548774,0.5142857142857139,Reject H0,Reject H0,Reject H0,0.0128580155249082,0.0543033347039186,-0.0087895377476441
KO UN Equity,7.369089477963649e-05,0.9484802415346142,0.0079015685522373,0.0021040407385813,inf,0.0395280034632503,0.6451612903225801,Fail to reject H0,Fail to reject H0,Fail to reject H0,0.0161301248128589,0.055462318622459,-0.0079144681249085,7.802078375926613e-05,0.9863843017314782,0.0081897152691338,0.0006847497939867,inf,0.0219811797862654,0.7373271889400914,Fail to reject H0,Reject H0,Reject H0,0.0184353822357297,0.0401668388089668,-0.006523413782726,7.85092966809025e-05,0.986022028297003,0.0082037931249328,0.0005825429958451,inf,0.0225115869286589,0.3686635944700457,Reject H0,Reject H0,Reject H0,0.0092182962307131,0.0315864079931137,-0.0071301691482656,7.757825125332603e-05,0.9749256294227264,0.0081294662444808,0.0009829727851726,inf,0.0280363967085415,0.3686635944700457,Reject H0,Reject H0,Reject H0,0.0092192071186096,0.0370849092063861,-0.007643434857421
NFLX UW Equity,0.0006985780123186135,0.9500498833856794,0.0239854529665095,0.0063364440645269,44.57944813525992,0.0724209326473029,0.559440559440559,Reject H0,Reject H0,Reject H0,0.0140058210484223,0.0823556199801625,-0.006832980569599,0.0007183181406375,0.9659695120969894,0.0243550492533516,0.0044942915259732,36.21736984998999,0.0599398258462111,0.9510489510489504,Fail to reject H0,Fail to reject H0,Fail to reject H0,0.023785360490148,0.079475543959822,-0.0076452592690386,0.0007118170100421,0.9595496073946368,0.0242229694230336,0.0051486934979607,38.62328039277912,0.0668439760195205,0.2237762237762236,Reject H0,Reject H0,Reject H0,0.0055969312027037,0.0689845891810897,-0.0080961464373292,0.0007109925193612,0.9509434267728868,0.0240665898538815,0.0058822915108292,33.68696062064416,0.0659916250001142,0.8951048951048944,Fail to reject H0,Reject H0,Reject H0,0.0223863591555483,0.0839193380804957,-0.0068156822258415
ADBE UW Equity,0.00042817873312567543,0.9704548690178612,0.0197502354371312,0.0032113775729423,inf,0.0518424052341622,0.651465798045602,Fail to reject H0,Reject H0,Reject H0,0.0162967296443398,0.065067370365484,-0.0081430703970564,0.0004282363485597,0.9741634908007956,0.0197867541643705,0.0030490664270712,inf,0.0496822276926137,0.977198697068403,Fail to reject H0,Reject H0,Reject H0,0.0244402818247382,0.0707728606031993,-0.0080201587221577,0.0004292073558632,0.9752625539647068,0.0198086213894152,0.0029064257269145,inf,0.0492517767618466,0.1302931596091204,Reject H0,Reject H0,Reject H0,0.0032574158043277,0.050569020474929,-0.0087188759493647,0.0004251723761308,0.9664646327886346,0.019670191674218,0.0036074486997683,inf,0.0549287760598801,0.5863192182410418,Fail to reject H0,Reject H0,Reject H0,0.0146639157994344,0.0667300911724669,-0.0083497857997692
ACN UN Equity,0.00019120017435723098,0.9726322332078888,0.0132236546363704,0.0019809114371188,inf,0.0395847655854403,1.29251700680272,Fail to reject H0,Reject H0,Reject H0,0.0323160831973969,0.0700645618933309,-0.0079819048269107,0.0001939106043289,0.981736202741992,0.013337298174165,0.0014572670151752,inf,0.0336454384650916,1.3605442176870737,Fail to reject H0,Reject H0,Reject H0,0.0340157739686654,0.0655769471821972,-0.0078235002414935,0.0001948124223979,0.9837531315063388,0.0133669883651178,0.0012996660985227,inf,0.0328650129942019,0.2721088435374147,Reject H0,Reject H0,Reject H0,0.0068027261925338,0.0383851781162686,-0.0083520170593138,0.0001925565769695,0.9735366696125762,0.013256037208276,0.0018335006177107,inf,0.0396510361293818,0.408163265306122,Reject H0,Reject H0,Reject H0,0.0102045546440773,0.04844398405289,-0.0087565035389808
PEP UW Equity,9.944001625999595e-05,0.9888908318496056,0.0094570445145046,0.000598494946957,32.07728657987485,0.0222981959205335,0.9556313993174052,Fail to reject H0,Reject H0,Reject H0,0.0238978433511824,0.0454097418782123,-0.0067644310541472,9.942765540047128e-05,0.9916260248980704,0.0094711164420704,0.0005184086718234,29.746984922864,0.0200374921445148,1.092150170648463,Fail to reject H0,Reject H0,Reject H0,0.0273076741931333,0.0466413882561615,-0.0062547294009974,9.89052555230738e-05,0.987252415845837,0.0094370273760402,0.0006821937871615,32.01677835489524,0.024212178467316,0.2730375426621158,Reject H0,Reject H0,Reject H0,0.0068264232182213,0.0309371919405401,-0.0074258063311349,9.894095462095594e-05,0.9835078992294132,0.0094193339296463,0.0007888899292569,49.03397548055076,0.0259390629945399,0.7508532423208184,Fail to reject H0,Reject H0,Reject H0,0.0187751120449304,0.0441147315079065,-0.0075036863470925
MCD UN Equity,8.641872417217379e-05,0.9831157838972516,0.0088913079196836,0.000793651195194,inf,0.0258045593820448,0.7239819004524881,Fail to reject H0,Reject H0,Reject H0,0.0181008456958937,0.0431802256076347,-0.0075118471774747,8.641135029939378e-05,0.9853753937034688,0.0089018966903145,0.000742605127817,inf,0.0249182014176518,0.7843137254901954,Fail to reject H0,Reject H0,Reject H0,0.0196101451212733,0.0437041709848691,-0.0073404522511283,8.687056713960764e-05,0.9880547743936252,0.0089249946902432,0.0006119123242551,inf,0.0229603038108813,0.2413273001508293,Reject H0,Reject H0,Reject H0,0.0060332942854204,0.0286093557528648,-0.0072416599924636,8.669777431933956e-05,0.9838468768964358,0.0089018394816146,0.0007415902609042,inf,0.025275620429805,0.6033182503770734,Fail to reject H0,Reject H0,Reject H0,0.0150853434247174,0.0396324064157329,-0.0074799738584413
TMO UN Equity,0.00020100960988612713,0.9721661893053112,0.0133844862588148,0.0019165618422939,81.25806830152112,0.0410579765482377,0.5845511482254693,Fail to reject H0,Reject H0,Reject H0,0.0146167191983016,0.0545027335544764,-0.0087757795083039,0.0002025801766402,0.9800403590427031,0.0134646703948717,0.0015436009842046,71.1294020059036,0.0354700228185534,1.5031315240083494,Fail to reject H0,Reject H0,Reject H0,0.0375848940301026,0.0712014276108112,-0.0079758966100678,0.0002022269596458,0.9768788994941138,0.0134376260584997,0.0016433670822705,60.20937615457734,0.0381668866565702,0.334029227557411,Reject H0,Reject H0,Reject H0,0.0083516610296956,0.0457229591649724,-0.0088656006176093,0.000200415197975,0.9684471778617452,0.0133480739342019,0.0020980237218245,73.32616215907815,0.0430536883966757,0.334029227557411,Reject H0,Reject H0,Reject H0,0.0083529804297777,0.0505650206102775,-0.0089137177602263
DIS UN Equity,0.0007427847123819536,0.9570841210195484,0.0243116403556616,0.0055470228983782,inf,0.0682909001736648,0.5063291139240502,Reject H0,Fail to reject H0,Reject H0,0.0127769532959069,0.0807299880867021,-0.0067240959530333,0.0007431746751762,0.9652374661128468,0.0244215794390278,0.0051573018512061,inf,0.0638522390800563,1.084990958408679,Fail to reject H0,Reject H0,Reject H0,0.0272699088839157,0.0896598078348336,-0.0061503322653987,0.0007526470331674,0.9755269486726514,0.0246694875437992,0.0036666320756837,inf,0.0546560517204405,0.5786618444846288,Fail to reject H0,Reject H0,Reject H0,0.0145138932520008,0.0688280403389609,-0.0076885848738793,0.0007648244111971,0.977608245894943,0.0247830395921969,0.0031753190946463,inf,0.0489098522912349,1.084990958408679,Fail to reject H0,Reject H0,Reject H0,0.0272493858162644,0.075024435470092,-0.006870951302196
ABT UN Equity,0.0001584485863633734,0.9681433917582566,0.011707941869971,0.0019179089755932,30.944116693588864,0.0402370234065559,0.3106796116504852,Reject H0,Fail to reject H0,Reject H0,0.0077670797276784,0.0472259027418376,-0.0086848473699099,0.000159513052656,0.9720125364594084,0.0117558431991131,0.001686661647944,28.752455774255385,0.0364639387939483,1.2427184466019408,Fail to reject H0,Reject H0,Fail to reject H0,0.0310716807374097,0.0660462705076897,-0.0079754394489993,0.0001618231662608,0.9813939014777706,0.0118531721143951,0.0011914595382652,22.152941667972367,0.0321218488797877,0.1553398058252426,Reject H0,Reject H0,Reject H0,0.0038841680065335,0.0351867369398547,-0.0084562200958787,0.0001605006022285,0.9749016918223984,0.0117893874545061,0.001508568528572,24.50111305039951,0.0365809053175835,0.1553398058252426,Reject H0,Reject H0,Reject H0,0.0038845643380443,0.0396328752239505,-0.0088543097938008
CSCO UW Equity,0.0001752866958296827,0.9805374070295708,0.0119282545166677,0.0012484123056342,inf,0.0323393338301646,0.8510638297872334,Fail to reject H0,Reject H0,Reject H0,0.0213009716851107,0.05219424644991,-0.0079453414444966,0.0001746504165084,0.985457227142381,0.011948670720946,0.0011030632257716,inf,0.0287827932284701,1.7629179331306977,Reject H0,Reject H0,Reject H0,0.0440850480779208,0.0710306446302643,-0.0070843975165543,0.0001742399254249,0.974380404675407,0.011869201698813,0.0015145569051149,inf,0.0366974123497428,0.3647416413373857,Reject H0,Reject H0,Reject H0,0.0091236807289195,0.0450032147514512,-0.0088293412277835,0.0001733835274847,0.9708546705203666,0.0118226219738438,0.0017320150351822,inf,0.0379680823731491,0.4255319148936167,Reject H0,Reject H0,Reject H0,0.0106551704787974,0.047639354453572,-0.0084670148227456
WFC UN Equity,0.0002983429019088853,0.9506937983242142,0.0160037122161003,0.0041704834213282,inf,0.0600423024388052,0.3241491085899511,Reject H0,Reject H0,Reject H0,0.0081056029183472,0.0664947652295056,-0.008309577888684,0.0003019496699564,0.959404075785127,0.0161345139350668,0.0034870492155187,inf,0.0550259402983004,0.4538087520259315,Reject H0,Reject H0,Reject H0,0.0113474400737934,0.064579907699947,-0.0086692874245779,0.0003097613170909,0.974368297939918,0.0163627791262371,0.0023412390365249,inf,0.0450560638499405,0.3889789303079413,Reject H0,Reject H0,Reject H0,0.0097250425956436,0.0530856800110847,-0.0089272704233918,0.0003075856270927,0.9678963389234104,0.0162776829198808,0.0027473479224275,inf,0.0493069351618462,0.1296596434359804,Reject H0,Fail to reject H0,Reject H0,0.0032415252148834,0.0512893282328976,-0.0090265995176588
DHR UN Equity,0.00024960047610465716,0.9671021609266977,0.0146427054470425,0.0026289844628492,89.82463469571935,0.0473767733880259,0.3037974683544301,Reject H0,Reject H0,Reject H0,0.0076108722693843,0.0533327424916194,-0.0085974318179507,0.0002506938200494,0.9664764996573408,0.01464750516135,0.0025798618872984,89.34307522855146,0.0475131184276982,0.20253164556962,Reject H0,Reject H0,Reject H0,0.0050708010938877,0.0510914467704221,-0.0087801409427406,0.0002561921174846,0.977974810603528,0.0148175591726428,0.0017272100442338,75.6054054715898,0.0390501140158963,0.4050632911392401,Reject H0,Reject H0,Reject H0,0.0101391120208678,0.0474488079871688,-0.0087105288404635,0.0002535882884964,0.9697302446734324,0.0147151709919398,0.0022096698621297,84.53638685532117,0.0443908440359291,0.20253164556962,Reject H0,Reject H0,Reject H0,0.0050709142907988,0.047966308506535,-0.0089375225895392
INTC UW Equity,0.0006569090374512521,0.9718713277544186,0.0244223398816296,0.0040725146163673,inf,0.0560962494188752,0.9577464788732388,Fail to reject H0,Reject H0,Reject H0,0.0239660699688489,0.0768437511268597,-0.0073254356185376,0.0006615646660879,0.9779233072827248,0.0245404871475407,0.0035387261420521,inf,0.05092308851127,1.5211267605633791,Reject H0,Reject H0,Reject H0,0.0380592085050031,0.0849299380788087,-0.007119305887582,0.0006610238920238,0.974711555272604,0.0245004590364001,0.0037317012648159,inf,0.0547534990377581,0.112676056338028,Reject H0,Reject H0,Reject H0,0.0028187155905859,0.0557879760009945,-0.0083068545556907,0.0006661309058259,0.9756197529066026,0.0245603389804979,0.0033792154656223,inf,0.0525492091692592,0.9577464788732388,Fail to reject H0,Reject H0,Reject H0,0.0239631477283148,0.0732411486450975,-0.007947477293884
INTU UW Equity,0.0003239477277809951,0.9610473454420873,0.0167781966774609,0.0034567456979326,inf,0.0538544944042458,0.545454545454545,Fail to reject H0,Fail to reject H0,Fail to reject H0,0.0136478750384973,0.0647203039082158,-0.0081112781091349,0.0003261339378993,0.9692803545481726,0.0168815005685693,0.002951835900102,inf,0.0497490638650023,0.7272727272727265,Fail to reject H0,Reject H0,Reject H0,0.0181913117057707,0.0648716528915609,-0.0083500522453659,0.000330169687267,0.969400580132044,0.0169385691117362,0.0026537856687024,inf,0.0480219388332137,0.545454545454545,Fail to reject H0,Reject H0,Reject H0,0.0136384346206661,0.0588930432729457,-0.0088309333767426,0.0003244413326147,0.9586177123969868,0.016770133578265,0.0034970095107701,inf,0.0554724610612094,0.545454545454545,Fail to reject H0,Reject H0,Reject H0,0.0136394228232318,0.0663733337635883,-0.0086460145790755
IBM UN Equity,0.00016633982197682506,0.9674434679594396,0.011740395911404578,0.0019372270499852483,65.74343885433206,0.03997865861359741,0.7865168539325836,Fail to reject H0,Fail to reject H0,Fail to reject H0,0.007025697886628843,0.044307449205468436,-0.008681300638475764,0.00016976831788645955,0.9876107358030991,0.01192718628643615,0.000992336062337799,44.27970803706734,0.027127374777621383,1.2359550561797743,Fail to reject H0,Reject H0,Reject H0,0.019673470220120667,0.047141098118145456,-0.007567198043561242,0.00016854337162838313,0.9796709989488218,0.011858139851270327,0.0013468460030353767,55.693708713707,0.03381235564820344,0.2247191011235953,Reject H0,Reject H0,Reject H0,0.005618045305059929,0.03774146603910413,-0.008598505309080387,0.0001693263984825873,0.9771275200033874,0.01185225930957068,0.001346729145833346,45.69979977677279,0.03415410480199413,0.33707865168539297,Reject H0,Reject H0,Reject H0,0.008429162428704543,0.040623718904155396,-0.00855410423630507
QCOM UW Equity,0.00047391053375465725,0.9628140235786352,0.0204579282023774,0.0040928600733976,41.285805336067966,0.0580680377989882,0.8308605341246283,Fail to reject H0,Fail to reject H0,Fail to reject H0,0.0207763822228749,0.0764745291942624,-0.0077624293728163,0.0004784796160148,0.9675987638837944,0.0205678144678995,0.0035742337235041,37.99345334573962,0.055499442465121,0.4154302670623142,Reject H0,Reject H0,Reject H0,0.0103920377176018,0.0637716104686852,-0.0084406053054373,0.0004761974351124,0.965640732141314,0.0205198663360357,0.0038347996956311,36.50243841318355,0.0578703837383061,0.118694362017804,Reject H0,Reject H0,Reject H0,0.0029674021296851,0.0593765265059489,-0.0087121304158918,0.0004759529477008,0.9617076230791602,0.0204751448835008,0.004036659068525,42.38672408782207,0.0598062059674192,0.2373887240356081,Reject H0,Reject H0,Reject H0,0.0059378764570036,0.0639354207158497,-0.0084463876272314
VZ UN Equity,0.00023534300661057892,0.9830413729678394,0.0138458386241924,0.0012485741399459,inf,0.0315685000903099,0.8628659476117095,Fail to reject H0,Fail to reject H0,Fail to reject H0,0.021577973236747,0.0521483145747473,-0.0078129416530516,0.0002356489553302,0.9873586306978892,0.0138809334027654,0.0010905864559476,inf,0.0286436519671014,1.725731895223419,Reject H0,Reject H0,Reject H0,0.043153344147073,0.0700505364051932,-0.0071477946913004,0.0002344954008747,0.9855542087474004,0.0138542948755389,0.0012387837150491,inf,0.0307970294004976,0.2465331278890598,Reject H0,Reject H0,Reject H0,0.0061644384993183,0.0364473512984408,-0.0078724922446911,0.0002357384906273,0.9813653404724832,0.0138403630686168,0.0012949860721154,inf,0.0315883474570614,1.1710323574730344,Fail to reject H0,Reject H0,Reject H0,0.0292842808529109,0.0595338155883575,-0.0075909855301755
AMAT UW Equity,0.0004814931139610961,0.9515191473810304,0.0210477974366614,0.005527107963447,72.90520695842116,0.0689869078312329,0.3024574669187143,Reject H0,Fail to reject H0,Reject H0,0.0075638663156267,0.0740755190807498,-0.0075218276451263,0.0004977890035236,0.9737557740988873,0.0214795234156794,0.0033844625111658,54.60524682951274,0.0519427036025866,0.6049149338374286,Fail to reject H0,Reject H0,Reject H0,0.0151245351964931,0.0641892075918547,-0.0081619667964535,0.0004963504024954,0.9700936303144392,0.0214225458593429,0.0036585525075081,55.09986876136961,0.0561618943633869,0.3024574669187143,Reject H0,Reject H0,Reject H0,0.0075614489561219,0.0613298083365851,-0.0086197900096484,0.0004887828859804,0.958878534302567,0.0212134567721596,0.0046736481638055,60.39895766106008,0.064110773306241,0.0756143667296785,Reject H0,Reject H0,Reject H0,0.0018903668980906,0.06391609678821,-0.0082243389529402
CMCSA UW Equity,0.000248891217606306,0.9726172370321922,0.0144713968165395,0.0020010877046041,inf,0.0416040204478574,0.5349182763744423,Reject H0,Reject H0,Reject H0,0.0133840680565075,0.0532440842786484,-0.0086716686470255,0.0002492041015726,0.9764721723712582,0.0145031242356639,0.0018344645994121,inf,0.0394030305378427,0.5943536404160471,Fail to reject H0,Reject H0,Reject H0,0.0148691104214819,0.0524394477449566,-0.0084961009081563,0.0002494092656862,0.9797477674913456,0.0145348844768341,0.0017063751428881,inf,0.0376212668352723,0.1188707280832094,Reject H0,Reject H0,Reject H0,0.0029726986444301,0.0393811249923985,-0.0086751836614331,0.0002506718616084,0.9764514515849828,0.0145256534282492,0.0017170181840921,inf,0.0380351881238181,0.6537890044576518,Fail to reject H0,Reject H0,Reject H0,0.016354059345133,0.0525108623718675,-0.0084463572501071
UBER UN Equity,0.0006440343514558296,0.9513849974412518,0.0235274046946945,0.0060433929025412,inf,0.0709721481836417,0.3493449781659385,Reject H0,Fail to reject H0,Reject H0,0.0087344689325457,0.0761191702913074,-0.0073056867261614,0.0006473533329288,0.9616276026252696,0.0236903820862855,0.005206462225109,inf,0.0649233260469986,0.6404657933042207,Fail to reject H0,Reject H0,Reject H0,0.0160130680473491,0.0769439904931428,-0.0076661613946091,0.0006501072894373,0.964827369328834,0.023761223950559,0.0050377280338622,inf,0.0642721725955239,0.0,Fail to reject H0,Reject H0,Fail to reject H0,0.0,0.0612001866643082,-0.0082660904411685,0.0006476258828797,0.9518827976123336,0.0235608050836751,0.0059067350759549,inf,0.0706243659569979,0.0582241630276564,Reject H0,Reject H0,Reject H0,0.0014556071526924,0.0689207306130982,-0.0075384690865786
GE UN Equity,0.00023719940326817694,0.9487846524142536,0.0146570528878728,0.0039305983033819,inf,0.0583932993562677,0.0590841949778433,Reject H0,Reject H0,Reject H0,0.0014771813953291,0.0570062010245762,-0.0084837651102394,0.0002395079586407,0.9577934101666904,0.0147634394188221,0.0034149563794483,inf,0.0541476924590939,0.1772525849335301,Reject H0,Fail to reject H0,Reject H0,0.0044314005821976,0.0556093589801545,-0.0086569938594253,0.0002475103557301,0.9745777362172204,0.0150189330909524,0.0021387559876246,inf,0.0432865112100592,0.0,Fail to reject H0,Reject H0,Fail to reject H0,0.0,0.0404661868983018,-0.0090570377565726,0.0002453410598705,0.966869933976514,0.0149241320824107,0.0025903102305477,inf,0.0478824513445178,0.0,Fail to reject H0,Reject H0,Fail to reject H0,0.0,0.0450621270327604,-0.00905847140068
CAT UN Equity,0.00032269898724333326,0.9744549020443084,0.0168526631983837,0.0023708106205868,56.78966266884199,0.0445057817253217,0.5423728813559318,Fail to reject H0,Reject H0,Reject H0,0.0135637009945287,0.0560647510452622,-0.0085179363471074,0.0003217372274459,0.975131212989163,0.0168448275233581,0.0024372923555924,57.3670896402034,0.0438957927637252,0.9491525423728806,Fail to reject H0,Reject H0,Reject H0,0.0237340926879836,0.0654041023012852,-0.0080942011460533,0.0003222633998196,0.9738311628422006,0.0168438220621902,0.002441548978362,53.87327932235645,0.0458716984084095,0.4067796610169488,Reject H0,Reject H0,Reject H0,0.0101696908302735,0.0543324291555262,-0.0089587109949339,0.0003229714525731,0.9722907223938204,0.0168372118085614,0.0024388724294251,56.88575784182586,0.0462506081536624,0.4067796610169488,Reject H0,Reject H0,Reject H0,0.010172177883455,0.0546649375070848,-0.0088805107209257
NKE UN Equity,0.00035306849484131934,0.9734931201036214,0.0170448179226868,0.0024983435069019,inf,0.0449247153714092,0.4472843450479229,Reject H0,Reject H0,Reject H0,0.0112090794813864,0.0552780461849651,-0.008217473965506,0.0003540958542389,0.9781237664022514,0.0171004952981364,0.00224676775715,inf,0.0423094377945932,0.5750798722044723,Fail to reject H0,Reject H0,Reject H0,0.0144048766815146,0.0556433465833574,-0.0080877073251603,0.0003531105387207,0.9739497437473904,0.0170541672004275,0.0024254442578491,inf,0.0454959634371658,0.2555910543130988,Reject H0,Reject H0,Reject H0,0.0063942138815769,0.0514107934049166,-0.0088698325211188,0.0003528024795507,0.9687062560265748,0.0169960479617152,0.0027301913129579,inf,0.0484330645966043,0.1916932907348241,Reject H0,Fail to reject H0,Reject H0,0.0048144592248649,0.052706010881256,-0.008627986732654
NOW UN Equity,0.00037085004987407215,0.9543337148935974,0.0184231504127811,0.0045846684336686,148.1377300029242,0.0630940707335213,0.7185628742514963,Fail to reject H0,Fail to reject H0,Fail to reject H0,0.0179692806640159,0.0777104348915927,-0.0078264228210948,0.0003788076361501,0.9666429757852274,0.0186456049263855,0.0034126284059913,125.97208128867078,0.0547810356983242,0.3992015968063869,Reject H0,Reject H0,Reject H0,0.0099843277017255,0.0617735337101096,-0.0085296128182055,0.0003810767261145,0.9708161877533782,0.0187136331371682,0.003072456294864,101.8900918227129,0.0519688265018066,0.4790419161676642,Reject H0,Reject H0,Reject H0,0.0119773560441381,0.0609417159405047,-0.0087322773628347,0.0003703394138252,0.9551521764891008,0.0184274408878668,0.0045228829851008,117.80871442730792,0.0628857261106667,0.3992015968063869,Reject H0,Reject H0,Reject H0,0.0099805082456037,0.0701301793078732,-0.0080928841776296
PFE UN Equity,0.0002465814458297475,0.9777323581884249,0.0148385535352119,0.0017827919400515,inf,0.0380933935570713,1.0227272727272718,Fail to reject H0,Fail to reject H0,Fail to reject H0,0.0255757211688441,0.0636353915014305,-0.0081161726413728,0.0002466017869426,0.9840082421932616,0.0148839670816158,0.0015501717033938,inf,0.0347367423576227,1.0795454545454537,Fail to reject H0,Reject H0,Reject H0,0.0269918478627565,0.0617368458359188,-0.0078409666947625,0.0002472771259478,0.98394465140964,0.0148950921124889,0.0014832718045895,inf,0.0345399325757056,0.227272727272727,Reject H0,Reject H0,Reject H0,0.0056820524715937,0.0411190331325804,-0.0082864627033498,0.0002470286239258,0.9776000169441398,0.0148434215040722,0.0017432888438362,inf,0.037842425859586,0.738636363636363,Fail to reject H0,Reject H0,Reject H0,0.0184734911611314,0.0564305830376234,-0.0081968129699827
BX UN Equity,0.00046827370810046813,0.9617979926272012,0.0206029293608161,0.0042202419491044,47.01245534400467,0.0589113473750495,0.6578947368421046,Fail to reject H0,Fail to reject H0,Fail to reject H0,0.0164521381755546,0.0727114615944578,-0.007775356655598,0.0004703452348289,0.9680724424060708,0.0206929674660558,0.0039022223757661,44.0674902688069,0.0563081519507585,0.7894736842105257,Fail to reject H0,Reject H0,Reject H0,0.0197493496222396,0.0729785719843654,-0.0077976593559821,0.0004746001360183,0.9718150583308348,0.0207822885278733,0.003389585410623,37.83080255980576,0.0539782528290505,0.2631578947368418,Reject H0,Reject H0,Reject H0,0.0065808513018126,0.0582041659227266,-0.0085788518415048,0.0004686468779733,0.9619875431191598,0.0206102513196182,0.0042165788347245,48.063587552697406,0.0606559756857633,0.2631578947368418,Reject H0,Reject H0,Reject H0,0.0065836129783139,0.0648248552878127,-0.0081994769079234
AXP UN Equity,0.0002613916341129926,0.9526489538586048,0.0147391033046036,0.0035103490084126,109.02035695196584,0.0539485442273078,0.3472222222222219,Reject H0,Fail to reject H0,Reject H0,0.0086823647390461,0.0609461769923819,-0.0082724294113003,0.0002685684106181,0.978662801211334,0.0150472832651964,0.0019963935123578,78.43253130986692,0.0393806077526097,0.8333333333333326,Fail to reject H0,Reject H0,Reject H0,0.0208377711807167,0.0577899643280643,-0.0080770145084128,0.0002669001162542,0.9722587544194932,0.0149755770123645,0.0023700810330957,80.94148840579874,0.0446665808566981,0.0,Fail to reject H0,Reject H0,Fail to reject H0,0.0,0.0433661775303071,-0.009075285079919,0.0002667460269231,0.964373570931584,0.0149033899203427,0.0026341797940606,73.67328187524791,0.0470982700444498,0.2083333333333331,Reject H0,Fail to reject H0,Reject H0,0.0052084337295699,0.0507522518813236,-0.0088359297941568
AMGN UW Equity,0.00019394181853284704,0.9838270417589032,0.0132360904529813,0.0011817652695608,34.62945802713302,0.0314556334256697,0.3940886699507385,Reject H0,Fail to reject H0,Reject H0,0.0098578263287231,0.040634441916684,-0.0080543414081909,0.000192511596852,0.9832697802838188,0.0132088083418011,0.0013293456561662,36.89646455053203,0.0327863956821287,0.5911330049261079,Fail to reject H0,Reject H0,Reject H0,0.0147820914458043,0.0467809587096413,-0.0080148721293019,0.0001938416615494,0.9840429083581806,0.0132352750483619,0.0012053490524831,34.75514643495087,0.0319422494408201,0.1313628899835795,Reject H0,Reject H0,Reject H0,0.0032854449307989,0.0348468843012016,-0.0082749022001091,0.0001939238260114,0.982441932365098,0.0132250773613307,0.0012588000663508,34.528476125675475,0.032742807077127,0.4597701149425283,Reject H0,Reject H0,Reject H0,0.0114986255137522,0.0435344301452381,-0.0082842012959844
UNP UN Equity,0.00015958924677762808,0.9627659703767082,0.0114384215075674,0.0021568309533326,inf,0.0407231821678025,1.3223140495867758,Fail to reject H0,Fail to reject H0,Fail to reject H0,0.0330607405538486,0.0721810849272808,-0.007884409310395,0.0001616232742609,0.9785022446684484,0.0115970266697349,0.0013452143136988,inf,0.0302707728170239,1.6528925619834696,Reject H0,Reject H0,Reject H0,0.0413249848619182,0.069673831535164,-0.0070685068748891,0.0001630328561201,0.9784299919865598,0.011606608783659,0.0013161550332864,inf,0.0336894642081724,0.0,Fail to reject H0,Reject H0,Fail to reject H0,0.0,0.0327617537309264,-0.008686153047657,0.0001620570940778,0.971293366066185,0.0115380096932724,0.0016587972825539,inf,0.0379698582661923,0.0,Fail to reject H0,Reject H0,Fail to reject H0,0.0,0.0370421477889462,-0.0089103289186443
TXN UW Equity,0.0002220242789689436,0.9564856666199852,0.0143942475759006,0.0032659742857176,78.32244862349297,0.0530300724091393,0.5785123966942144,Fail to reject H0,Fail to reject H0,Fail to reject H0,0.0144642105601842,0.067136402633677,-0.0084460611243342,0.000228582954871,0.9753255679560696,0.014643793612415,0.0019869770712655,60.27430424907451,0.0412698145690062,0.7438016528925614,Fail to reject H0,Reject H0,Reject H0,0.0185966069275605,0.0591944104738302,-0.0086547770826105,0.0002306557872931,0.9797096131042756,0.0147102524186777,0.0016966092140341,55.68717617349316,0.0384197304854759,0.1652892561983469,Reject H0,Reject H0,Reject H0,0.0041324430777237,0.042443010297367,-0.008821676364444,0.00022969380539,0.9769999026353666,0.0146731162083753,0.0018929935723536,68.16616117219718,0.0401112080302002,0.3305785123966939,Reject H0,Reject H0,Reject H0,0.0082647574432583,0.048108138834007,-0.008688793959547
MS UN Equity,0.0005505325859134427,0.9666845055589096,0.0217713446908263,0.0041845558233869,inf,0.0565371750386723,2.1579961464354507,Reject H0,Reject H0,Reject H0,0.0539764988814574,0.1083050085695261,-0.0067459707718072,0.0005475395772148,0.9658867729260512,0.0217270612384771,0.0043194962269596,inf,0.057703502779455,1.3872832369942183,Fail to reject H0,Reject H0,Fail to reject H0,0.0347020263262377,0.0906405893857453,-0.0071141311884835,0.0005599152610447,0.9741632042412118,0.0219558793564153,0.0031508668143091,inf,0.0500603238264808,0.3082851637764929,Reject H0,Reject H0,Reject H0,0.0077159221362836,0.0573644606971755,-0.0082867876416361,0.0005650746640187,0.9777140568474136,0.022044925914459,0.0026909813696937,inf,0.0461875581864629,1.2331406551059718,Fail to reject H0,Reject H0,Reject H0,0.0308442230245395,0.0754093424314413,-0.0079116602888879
PM UN Equity,0.00011769172995425215,0.9718954616747426,0.0102457639011602,0.0014922113801742,inf,0.0349027963385926,1.0297029702970288,Fail to reject H0,Fail to reject H0,Fail to reject H0,0.0257454269211015,0.0599925131853222,-0.0081216892848408,0.0001187917022366,0.9805786281083516,0.0103172155087421,0.0011317483550196,inf,0.0295326820769217,1.1881188118811872,Fail to reject H0,Reject H0,Reject H0,0.0297065333192807,0.0584107703890494,-0.0075393810488232,0.0001198242776931,0.983229849178868,0.0103531987018219,0.0009477167999654,inf,0.0287765119458716,0.3168316831683165,Reject H0,Reject H0,Reject H0,0.007921291361529,0.0364599024251087,-0.0080971571031491,0.000118128876315,0.9744252867931604,0.0102665447840512,0.0013905516465207,inf,0.0339030222531281,0.3960396039603957,Reject H0,Reject H0,Reject H0,0.0099010799203249,0.043557009093587,-0.0083421214833553
ISRG UW Equity,0.00035052197807430933,0.951549480769494,0.0171294596509708,0.004268535962446,173.62743893838092,0.0589387613573271,1.142857142857142,Fail to reject H0,Fail to reject H0,Fail to reject H0,0.0285814151756409,0.0841407115615677,-0.0075237641445636,0.000352078976073,0.935535524653622,0.0170149960769816,0.0049385035681498,186.4264192856936,0.0602820334938163,1.2244897959183665,Fail to reject H0,Reject H0,Reject H0,0.0306210787801184,0.0875457207901022,-0.0067902186973406,0.0003604468888365,0.9688387244895076,0.0174142803394985,0.0029185701541033,133.95194869906177,0.0493284034677765,0.0,Fail to reject H0,Reject H0,Fail to reject H0,0.0,0.0472506789154639,-0.0088234876131887,0.0003547140076029,0.9549940784300206,0.0172144384378392,0.0038876009878926,150.25511348126474,0.0569746365560951,0.3265306122448976,Reject H0,Reject H0,Reject H0,0.0081644185011489,0.0625075553090382,-0.0083492981563825
SPGI UN Equity,0.00021179022622237712,0.9789632575320456,0.0136365655896812,0.0015252341032007,inf,0.0359732100366307,0.654545454545454,Fail to reject H0,Fail to reject H0,Fail to reject H0,0.0163714666356081,0.0507594021795489,-0.0083546676136082,0.0002114317451271,0.978845080912984,0.0136263845615557,0.001581597283545,inf,0.03557998668446,1.2363636363636352,Fail to reject H0,Reject H0,Reject H0,0.0309231698777073,0.0646220446327713,-0.007877773831971,0.0002109471179826,0.977823930392374,0.0136138840331243,0.0016301129271543,inf,0.0376769796676076,0.1454545454545453,Reject H0,Reject H0,Reject H0,0.0036373073551553,0.0403028776068447,-0.0088316725054965,0.0002102123429975,0.9729923709991238,0.0135666440812813,0.0018754169808329,inf,0.0404211576018703,0.3636363636363633,Reject H0,Reject H0,Reject H0,0.0090954731242615,0.0482185618362278,-0.0088114302418146
SYK UN Equity,0.0002547220960797536,0.9559032354016092,0.0137919241601886,0.0030548205579507,123.21267770684214,0.0496030762322598,0.9478672985781982,Fail to reject H0,Fail to reject H0,Fail to reject H0,0.023699894683727,0.0714612537470705,-0.0081728415028667,0.0002624420860963,0.9809935348508376,0.014081113012864,0.0016306436090293,85.27946651309205,0.0333110043203458,1.2322274881516575,Fail to reject H0,Reject H0,Reject H0,0.0308080909914898,0.0619226843880004,-0.0073087744556555,0.0002594503505475,0.974807587568394,0.0140067503939496,0.0020879956933872,79.21677784786436,0.0398865834836027,0.0,Fail to reject H0,Reject H0,Fail to reject H0,0.0,0.0388598735537214,-0.0087264253025003,0.0002618137523994,0.96575121982824,0.0139577590536298,0.0022330593726938,125.4246382080348,0.0433562300639301,0.3791469194312792,Reject H0,Reject H0,Reject H0,0.0094804167523726,0.0511947344258068,-0.0088356653020978
LOW UN Equity,0.00021362147412176715,0.9455989358423548,0.0140419662644678,0.0039769550669143,inf,0.0589086170823099,0.1957585644371939,Reject H0,Fail to reject H0,Reject H0,0.0048946336554868,0.0629175788890513,-0.0084452354144035,0.0002239982104061,0.9763271790563238,0.0144364872013946,0.0019921467942681,inf,0.0392674932069754,1.5008156606851537,Fail to reject H0,Fail to reject H0,Fail to reject H0,0.0375282303982355,0.0749395233582828,-0.0078044276323464,0.0002248634544146,0.9771464391160994,0.0144599140133992,0.0018875538409899,inf,0.0403897978786137,0.0,Fail to reject H0,Reject H0,Fail to reject H0,0.0,0.0397593061426067,-0.0089511249236187,0.0002224332127117,0.967289699841416,0.0143468372982387,0.0024533744742528,inf,0.0457403218537904,0.4567699836867859,Reject H0,Reject H0,Reject H0,0.0114205560033689,0.0559301298685066,-0.0087324669569158
COP UN Equity,0.0002934444267373045,0.9298654474944976,0.0160249339962446,0.0058612863379057,31.96802630652138,0.0717945575979933,0.073126142595978,Reject H0,Reject H0,Reject H0,0.0018282042885676,0.073340827600659,-0.0075156843054392,0.0003128305799787,0.9724634723153576,0.0166667069544952,0.0026482223094486,20.758678234207515,0.0460810052919762,0.511882998171846,Reject H0,Fail to reject H0,Fail to reject H0,0.0127994597159349,0.0579609365339828,-0.0083547114301594,0.0003145773035308,0.9747026314508878,0.0167111737581663,0.0024166843743762,19.8116561667611,0.0453629589331321,0.0,Fail to reject H0,Reject H0,Fail to reject H0,0.0,0.045103874077826,-0.0089173738383078,0.0003079809419625,0.9619626781675962,0.0165079301881132,0.0034275006479118,23.606473899714832,0.0538079339332344,0.146252285191956,Reject H0,Reject H0,Reject H0,0.003656378326008,0.0569622503353281,-0.0086059829392357
GS UN Equity,0.0002187542054795617,0.9702742491241084,0.0139397047571145,0.0022739438945471,52.84908794227064,0.0429358468408365,0.4117647058823526,Reject H0,Fail to reject H0,Reject H0,0.0102956597140024,0.0523829459727762,-0.0084909469487867,0.0002220120574121,0.9792078709635706,0.0140590810741513,0.0017023658401062,44.44018006759874,0.0372436841721829,0.6470588235294112,Fail to reject H0,Reject H0,Reject H0,0.0161804799799148,0.0522144398638922,-0.0083287037272334,0.0002227305008493,0.9810805607756016,0.0140830471644985,0.0015409124228823,42.130070376185216,0.0361296359958194,0.1176470588235293,Reject H0,Reject H0,Reject H0,0.0029414524313411,0.0385295749960374,-0.0086185033819084,0.0002221159650344,0.975193601689906,0.0140297455074877,0.0018085355122432,46.35617175579763,0.0398405936657339,0.4117647058823526,Reject H0,Reject H0,Reject H0,0.0102979516610862,0.0492086178746311,-0.008810863808939
BKNG UW Equity,0.0002892800495904789,0.9524472893662296,0.0158056333159396,0.0038640314400488,inf,0.0570601955827001,0.2238805970149251,Reject H0,Fail to reject H0,Reject H0,0.0055993878712159,0.0607042656657526,-0.0082566361956016,0.0003018347374498,0.979882218148684,0.0162162786232029,0.0018614859499396,inf,0.0385519602448123,0.5970149253731337,Fail to reject H0,Reject H0,Reject H0,0.0149447173248722,0.050967961676966,-0.0080641992836075,0.0002993816287864,0.9736505753836348,0.0161268949575237,0.0022942457560369,inf,0.0448278846563678,0.1492537313432834,Reject H0,Reject H0,Reject H0,0.0037375123563978,0.0466101619008612,-0.0089217732652852,0.0002951658193324,0.962221364409574,0.0159620961533882,0.0031459203597388,inf,0.0522754487564648,0.2985074626865668,Reject H0,Reject H0,Reject H0,0.0074824377582155,0.0575042193415014,-0.0085636515543549
HON UW Equity,0.00011726734047844802,0.9787899320523517,0.0103086763020491,0.0011468121551963,inf,0.0321693575230834,0.2156334231805928,Reject H0,Reject H0,Reject H0,0.0053969704209936,0.0373201021771769,-0.0084719093538099,0.0001168060071446,0.976331058374214,0.0102862502870379,0.0012599070112725,inf,0.0333664249224428,0.539083557951482,Fail to reject H0,Fail to reject H0,Fail to reject H0,0.0134808860839335,0.0464395902212095,-0.0084609958468667,0.0001178824330926,0.9824497869380774,0.010342526966282,0.000967189242213,inf,0.0295887902661884,0.2156334231805928,Reject H0,Reject H0,Reject H0,0.005394021567969,0.0347873288682831,-0.0082664332195262,0.0001176267716889,0.980918001403152,0.0103286631839412,0.0010402545464176,inf,0.0305292298873458,0.2156334231805928,Reject H0,Reject H0,Reject H0,0.0053939012798856,0.0357301462078174,-0.0083211747854956
UPS UN Equity,0.00026109144752114994,0.967484662337645,0.0146121372395434,0.0024840667492266,inf,0.0447332089910109,1.2195121951219503,Fail to reject H0,Reject H0,Reject H0,0.0305226978905791,0.0737751529178931,-0.0076761592311226,0.0002636338106748,0.9839138441079393,0.0147822723889892,0.0016059132601893,inf,0.0347849427977735,1.7073170731707303,Reject H0,Reject H0,Reject H0,0.0427175939748821,0.0756574207691007,-0.0073217742940447,0.0002624764419612,0.9743815398682688,0.0146919958018268,0.001958156886928,inf,0.0416544459656739,0.0,Fail to reject H0,Reject H0,Fail to reject H0,0.0,0.0421425616637222,-0.0091500033742391,0.0002632891923888,0.9702951054634285,0.0146680365384586,0.0021802876641788,inf,0.0437503910227168,0.4878048780487801,Reject H0,Reject H0,Reject H0,0.012214630991392,0.0551468183178688,-0.0087230209949158
BA UN Equity,0.0004081015800596957,0.9456639836893392,0.0186869172299642,0.0052807219863699,inf,0.0651108720575695,0.8403361344537807,Fail to reject H0,Reject H0,Reject H0,0.0210251980821837,0.0836757880215875,-0.0069666560762297,0.000421927066801,0.9761646384176909,0.0191655073074752,0.0029309806431474,inf,0.0480355830712362,1.176470588235293,Fail to reject H0,Reject H0,Reject H0,0.0294282961278585,0.0745621341431148,-0.0079280137823127,0.0004223637503817,0.972396491807544,0.019130551745266,0.0030822856018254,inf,0.0506432537867636,0.4481792717086831,Reject H0,Reject H0,Reject H0,0.0112055493597691,0.0599849277467327,-0.0085352061783561,0.000423044334067,0.962111602805352,0.0190335019695549,0.0035150439117424,inf,0.0551040997541724,0.6722689075630246,Fail to reject H0,Reject H0,Reject H0,0.0168236739804973,0.0694299815956331,-0.0081776808825577
PLD UN Equity,0.0004392291318921775,0.9849516120555112,0.0200078263017314,0.0017698837902107,12.026921856984702,0.0362576163680882,2.13740458015267,Fail to reject H0,Fail to reject H0,Fail to reject H0,0.0534448699202065,0.0841374846382554,-0.007260560769026,0.0004357380030035,0.9839318590698408,0.0199594723785579,0.0019750654866862,13.183699381768909,0.0377545244051847,2.4427480916030517,Reject H0,Fail to reject H0,Reject H0,0.0610728215088577,0.0936507507913476,-0.0073470180209452,0.0004355449465337,0.9818233958135992,0.0199366744883699,0.0021057969889135,14.21046030388556,0.0413602537007381,0.0,Fail to reject H0,Reject H0,Fail to reject H0,0.0,0.0376399651608047,-0.0085815537257678,0.0004397731225904,0.985037496947898,0.0200186537471454,0.001651298012245,11.203672421172898,0.0356151910391625,0.6106870229007628,Fail to reject H0,Fail to reject H0,Fail to reject H0,0.0152671930890913,0.046673913386298,-0.0079834033279893
LRCX UW Equity,0.0004908488957068537,0.952295669676465,0.0214445408668492,0.0056569016447894,60.457953102461225,0.0699278864195238,0.3018867924528299,Reject H0,Fail to reject H0,Reject H0,0.0075482665624224,0.0747731467009839,-0.0075006836292831,0.0005089205458804,0.9739047205085356,0.0218857174085624,0.0033869193777214,45.25580007498113,0.0530926257712416,0.5283018867924524,Fail to reject H0,Reject H0,Reject H0,0.0132105807426255,0.06324398504996,-0.0083644836380128,0.0005084058738898,0.971578509822386,0.0218553666860642,0.0036059374716787,45.35727419913048,0.0554641302297718,0.1509433962264149,Reject H0,Reject H0,Reject H0,0.0037739036386801,0.0567204309158075,-0.0086114480126175,0.000495332230459,0.9565192806462588,0.0215414603736472,0.0051621522353224,67.1287892776375,0.0667811841430477,0.0754716981132074,Reject H0,Reject H0,Reject H0,0.0018867924539081,0.0663072503692749,-0.0079388731890354
T UN Equity,0.00028798764975045246,0.9750258545139489,0.0150637798164098,0.0019783949538441,inf,0.0402021122454726,0.7784431137724545,Fail to reject H0,Fail to reject H0,Fail to reject H0,0.019479844015139,0.0587000882899622,-0.0081228521295168,0.0002902200591202,0.9791839718380732,0.0151225427489161,0.0017212759935694,inf,0.0354785293107148,2.934131736526944,Reject H0,Reject H0,Reject H0,0.0733996587221719,0.1060233343109329,-0.0066753849525389,0.000288329536178,0.9813765822596964,0.0151255531915684,0.0016769622046538,inf,0.0364813034777474,0.2395209580838321,Reject H0,Reject H0,Reject H0,0.0059901117879526,0.0422425023214908,-0.0084607433191896,0.0002910139759596,0.9775382584180442,0.0151278269996784,0.001673593662422,inf,0.0366485442138341,1.0179640718562866,Fail to reject H0,Reject H0,Reject H0,0.025472051980715,0.060612118954806,-0.0079098688839733
RTX UN Equity,0.0002541048753791505,0.9210463774283664,0.0135303329499218,0.0050197937063009,inf,0.0656528001304187,0.6611570247933879,Fail to reject H0,Reject H0,Reject H0,0.0165421715835793,0.0813699676293702,-0.0076313708529571,0.0002688445241529,0.9719733556728016,0.0141209995354839,0.0020666434152981,inf,0.0404115286057999,0.6611570247933879,Fail to reject H0,Reject H0,Reject H0,0.0165769630533694,0.055507693071095,-0.0077787818461955,0.0002683812422231,0.9763382487685104,0.0141478238922759,0.0018865149683981,inf,0.0392794370342229,0.1652892561983469,Reject H0,Reject H0,Reject H0,0.0041358405954456,0.0430613474279241,-0.0086527195565674,0.0002721006079867,0.9720785740353386,0.0141540016333814,0.0018938039625389,inf,0.0402525547222245,0.3305785123966939,Reject H0,Reject H0,Reject H0,0.0083051462297134,0.0474276136446241,-0.0083415078485278
ELV UN Equity,0.00022007947702825525,0.9337418046577034,0.0132141643366229,0.0042862591277924,129.83851514624016,0.0582601969747138,0.5955334987593047,Fail to reject H0,Fail to reject H0,Fail to reject H0,0.0148932561676957,0.0723112764214796,-0.0075116069297322,0.000229819665108,0.9806183096566752,0.0137110043227231,0.0018180274421376,80.6929401556454,0.0333367104502813,2.9776674937965235,Reject H0,Fail to reject H0,Reject H0,0.0744551890157017,0.1050358967819145,-0.0062805120790631,0.0002329594610386,0.978003736330214,0.0137435924778883,0.0016141052053536,65.38109735477528,0.0370625374791278,0.7940446650124063,Fail to reject H0,Reject H0,Reject H0,0.0198543157172342,0.0554057651448025,-0.008510174391914,0.0002312128107841,0.9731862547693264,0.0136821207399775,0.0019196074148441,76.13391315300504,0.0405880902193104,0.6947890818858555,Fail to reject H0,Reject H0,Reject H0,0.017373144333766,0.0566374534469551,-0.0086584000489852
BLK UN Equity,0.0002499068911632601,0.9748166297022528,0.0143185192691894,0.0021512408148319,72.91902205570993,0.0393577985387502,0.293685756240822,Reject H0,Fail to reject H0,Reject H0,0.0073424350304528,0.0457599271305985,-0.0080698545825788,0.0002544123825802,0.981607559975594,0.0144254022831053,0.0016192924817706,61.542924122306296,0.034557370580921,0.7048458149779729,Fail to reject H0,Reject H0,Reject H0,0.0176213241933842,0.0509292597162507,-0.0079310183557452,0.0002535091090124,0.98179074885695,0.0144183118205489,0.0016803172432409,63.99717314621977,0.0357586642232953,0.0,Fail to reject H0,Reject H0,Fail to reject H0,0.0,0.0350541898622644,-0.008347533826058,0.0002548825990169,0.9748408615617096,0.0143662218553216,0.0018923820219763,53.59200769700615,0.0391871356373169,0.1174743024963288,Reject H0,Reject H0,Reject H0,0.0029368954988919,0.041302216846066,-0.0085727271840381
SCHW UN Equity,0.0006640090887635656,0.9529259488367496,0.0217737453315533,0.0051007894478488,inf,0.0667267387317073,0.5574912891986058,Fail to reject H0,Reject H0,Reject H0,0.0139717015831716,0.0791475310481631,-0.0074316509975526,0.0006700675413972,0.9680521663485332,0.0220080776605207,0.0038994255618792,inf,0.055725771761629,0.9756097560975602,Fail to reject H0,Reject H0,Reject H0,0.0244293545239567,0.0781283712345377,-0.0074876733956512,0.0006570244249908,0.9675536208453872,0.0219244002613202,0.0041452196242133,inf,0.0576180086223842,0.0,Fail to reject H0,Reject H0,Fail to reject H0,0.0,0.058156464042927,-0.0085070660262521,0.0006749428020004,0.9668184133237804,0.022023091131358,0.0037556035639922,inf,0.055707152876595,0.5574912891986058,Fail to reject H0,Reject H0,Reject H0,0.0139640235165301,0.0681161538226566,-0.0079751646974856
PANW UW Equity,0.0014672618988486213,0.9686101346450576,0.0296539578400438,0.0051340664060208,45.67895811102038,0.0624796355825195,0.3921568627450977,Fail to reject H0,Fail to reject H0,Fail to reject H0,0.0103235864189211,0.066754384899391,-0.0060740498496189,0.001457019602921,0.9647867388305628,0.0295175403681238,0.0056943972178276,49.78298140991595,0.0674971766526725,0.6535947712418295,Fail to reject H0,Reject H0,Fail to reject H0,0.0167929693409675,0.0780848852351065,-0.006116752163633,0.0014688493973419,0.9688751111432148,0.029657518825022,0.0050472060137454,41.027062513849735,0.0642957702925787,0.2614379084967318,Reject H0,Reject H0,Reject H0,0.0070034123105415,0.0655630744514517,-0.0066035877526828,0.0014749963451869,0.967760382523522,0.029667281505085,0.004980164067552,42.91406708692635,0.0641514275194284,0.5228758169934636,Fail to reject H0,Reject H0,Reject H0,0.0135908924218358,0.0715433433642688,-0.0065301392504669
NEE UN Equity,0.0003281408878909606,0.96591285839266,0.0158921664165381,0.0027921095901866,inf,0.0488098233879436,0.8610567514677097,Fail to reject H0,Reject H0,Reject H0,0.0215387123934989,0.0693463262022116,-0.0083348050257858,0.0003298803327198,0.9808576619749644,0.0160416181286627,0.0020373554043404,inf,0.0391141650196746,1.1741682974559675,Fail to reject H0,Reject H0,Reject H0,0.029382376707229,0.0670083728279696,-0.0074794608259794,0.0003297700225651,0.9787488813614372,0.0160291386074072,0.0019880622548943,inf,0.0400575059742482,0.0,Fail to reject H0,Reject H0,Fail to reject H0,0.0,0.040891625895466,-0.008716195296669,0.000333631880911,0.9720028147865372,0.016008020147513,0.0021882481980009,inf,0.0429227361439969,0.939334637964774,Fail to reject H0,Reject H0,Reject H0,0.0235136698494898,0.0651914217027628,-0.0081847488052005
MDT UN Equity,0.0001673770362457035,0.9615771284017708,0.0122398347203931,0.0022864951278754,inf,0.0437009806753215,0.3623188405797098,Reject H0,Fail to reject H0,Reject H0,0.0090586255661203,0.0524949058146358,-0.0085620530482285,0.0001717194721236,0.980875211489262,0.0124417811950821,0.0013041423105732,inf,0.0332512110482636,0.7246376811594197,Fail to reject H0,Reject H0,Reject H0,0.018117755706057,0.0506359830494506,-0.0082554721833508,0.0001723172278047,0.983687823013366,0.012469247060914,0.0011637262949613,inf,0.0312603138641255,0.2898550724637679,Reject H0,Reject H0,Reject H0,0.0072464047930445,0.0382399013296571,-0.00823773905568,0.0001708770099085,0.9767638848092072,0.0124000539920474,0.0015190343836401,inf,0.0361922771658122,0.3623188405797098,Reject H0,Reject H0,Reject H0,0.0090601685871088,0.0448298358854411,-0.0085865894863364
TJX UN Equity,0.00010473312279275143,0.9374029461387152,0.0098871113088887,0.0032722177528311,inf,0.0537978860214284,0.0858369098712445,Reject H0,Reject H0,Reject H0,0.0021459519223571,0.0549671359671969,-0.0088690149218714,0.0001121892301105,0.971657165885802,0.0102485263333765,0.0014483253347415,inf,0.0343643330990822,1.201716738197424,Fail to reject H0,Fail to reject H0,Fail to reject H0,0.030045982071139,0.0627964430345165,-0.0080210773717973,0.0001137444194069,0.9816404599257404,0.0103365998316502,0.0010121457391376,inf,0.0300388161875746,0.3433476394849782,Reject H0,Reject H0,Reject H0,0.0085838282510433,0.0373963990741971,-0.0083491002269833,0.0001103732629671,0.9674904109863226,0.010179627183809,0.0017932955406212,inf,0.0386178633772562,0.1716738197424891,Reject H0,Fail to reject H0,Reject H0,0.0042918471023079,0.0418875648848948,-0.0086154511308898
ETN UN Equity,0.0004113946902619105,0.9770284037806,0.0179964104229268,0.0022338305341498,62.081663385681175,0.0423177431686072,0.7999999999999994,Fail to reject H0,Fail to reject H0,Fail to reject H0,0.020011335313893,0.058544315264601,-0.0082239021660077,0.0004057508720402,0.9687738945221984,0.0178592904807222,0.002914610209905,73.22724129199281,0.0488838755768807,1.4857142857142844,Fail to reject H0,Fail to reject H0,Fail to reject H0,0.0371501893719281,0.0820092189181751,-0.0081540013773725,0.0004091408323838,0.9748487562441304,0.0179514525284909,0.0024686539133055,58.47855291301955,0.0442467922685499,0.4571428571428568,Fail to reject H0,Reject H0,Reject H0,0.0114323952980668,0.0523766922121879,-0.008527839610664,0.0004122409935601,0.9720651300335686,0.0179659893347312,0.002444070768784,56.12593322489202,0.0443608645775971,1.142857142857142,Fail to reject H0,Reject H0,Reject H0,0.0285784983667451,0.0687909117175027,-0.0083289590160012
PGR UN Equity,0.0003879682457244636,0.9803267083065312,0.0170844234219249,0.0016683036165049,inf,0.0368225691532614,0.927835051546391,Fail to reject H0,Reject H0,Fail to reject H0,0.0232422929692925,0.0566219366159278,-0.0078132902789706,0.0003870116078951,0.9831370923177534,0.0170855673113545,0.0016562580837627,inf,0.0364572028313195,1.1340206185567,Fail to reject H0,Reject H0,Reject H0,0.0284070924525046,0.061061961221988,-0.0075267824349338,0.0003832460896494,0.9731024173223692,0.0169718090489845,0.0021913874788596,inf,0.0433867448378126,0.6185567010309273,Fail to reject H0,Reject H0,Reject H0,0.0154871859272068,0.0559222001440195,-0.0085970159657156,0.0003862319923582,0.9725965105788796,0.016993113345305,0.0021320426097334,inf,0.0425337372364291,0.6185567010309273,Fail to reject H0,Reject H0,Reject H0,0.0155173424126625,0.0548317181941193,-0.0082127543817327
SBUX UW Equity,0.00021237517675162944,0.97092795385157,0.0132373099995528,0.0019731531835892,inf,0.0401481720448767,0.5389221556886223,Reject H0,Fail to reject H0,Fail to reject H0,0.0134818310195694,0.0530682607606385,-0.0083223261237416,0.0002118404856127,0.9809845536360264,0.0133065087228738,0.0016303812694713,inf,0.0331510689249646,0.8383233532934125,Fail to reject H0,Reject H0,Reject H0,0.0209751289988481,0.0531776934882568,-0.0072563554969246,0.0002141615749241,0.9801988764410156,0.0133359948593363,0.0014875708889603,inf,0.0358343848632317,0.2395209580838321,Reject H0,Reject H0,Reject H0,0.0059924500439775,0.0414609312685089,-0.0086620677898262,0.0002132364537866,0.9716396215974902,0.0132545601005744,0.0019064295250081,inf,0.0402355924938353,0.2395209580838321,Reject H0,Reject H0,Reject H0,0.0059928741991467,0.0458518308295152,-0.0086923312451721
C UN Equity,0.0002722201377124767,0.9743755939162808,0.0153934105674094,0.0022565342772305,inf,0.0418575431804162,0.937042459736456,Fail to reject H0,Reject H0,Fail to reject H0,0.023431204149919,0.0635917866046387,-0.0080904028296369,0.0002753263612666,0.9860383832005084,0.0155416555706456,0.0014737491985206,inf,0.0333476266055309,0.9956076134699846,Fail to reject H0,Reject H0,Reject H0,0.0248945509563818,0.0564360496151977,-0.0077218024121283,0.0002733384102777,0.9791166785573606,0.0154545608032287,0.0019177298922861,inf,0.0398478609179297,0.117130307467057,Reject H0,Reject H0,Reject H0,0.0029282593519308,0.0419074148919346,-0.0087123593711703,0.0002733698744734,0.9738380472680322,0.0154032855344851,0.0021534745212389,inf,0.042631432037552,0.351390922401171,Reject H0,Reject H0,Reject H0,0.0087870652118225,0.0501502391791705,-0.0087461290871288
ADP UW Equity,0.00030734034039545804,0.9601304680516785,0.0130555967512941,0.0022871401549677,90.58005701526602,0.0408861049529379,0.9113924050632904,Fail to reject H0,Fail to reject H0,Fail to reject H0,0.022804612912267,0.062291700600325,-0.0075429341431157,0.0003122657829264,0.9708183106123186,0.0131900933865775,0.001690829837867,73.99202286676788,0.0348957587503781,1.0126582278481004,Fail to reject H0,Fail to reject H0,Fail to reject H0,0.025343668200968,0.0585692656174077,-0.0075472129048851,0.0003082784193918,0.964648446545827,0.0131118052272852,0.0020860450044399,72.66721982333341,0.0415913320148958,0.20253164556962,Reject H0,Reject H0,Reject H0,0.0050746793926563,0.0455824756277736,-0.0088979990810042,0.0003085089838903,0.9615992228426428,0.0130797222226596,0.0022358954602793,94.16619707885944,0.0438534978323489,0.20253164556962,Reject H0,Reject H0,Reject H0,0.0050833048419669,0.0477750674189726,-0.0089658867379967
LMT UN Equity,0.00013069243552130168,0.9530036711879866,0.0103860952318191,0.002314743128194,inf,0.0445388320257851,0.4229607250755283,Reject H0,Fail to reject H0,Reject H0,0.0105742914138924,0.0550293714525506,-0.0087637214748545,0.0001353904943947,0.986041049732722,0.010663883638528,0.0009384681003005,inf,0.023660664868676,2.839879154078547,Reject H0,Reject H0,Reject H0,0.0710075098128445,0.0929920769275015,-0.0056680962273685,0.0001347640560117,0.9801557386788672,0.0106224300411322,0.0011438176010414,inf,0.031566975054431,0.2416918429003019,Reject H0,Reject H0,Reject H0,0.0060423566817824,0.0375207036032788,-0.0085253810320344,0.0001348482068687,0.9757559119087515,0.0105964267208551,0.001257826775721,inf,0.0331001323729018,0.2416918429003019,Reject H0,Reject H0,Reject H0,0.0060441167235529,0.0389690247585907,-0.0085113889954091
CB UN Equity,0.0001367666155815921,0.9701590958329672,0.0105898834830121,0.0015828042891442,91.54271646930252,0.0367750082691575,0.1020408163265305,Reject H0,Reject H0,Reject H0,0.0025510262165896,0.0378275621341917,-0.0087002307810974,0.0001384891148469,0.9817912482703648,0.0106917987278227,0.0010783332090362,73.03349365135736,0.0296763213113882,0.3061224489795915,Reject H0,Fail to reject H0,Reject H0,0.0076530724625707,0.035649209376388,-0.0079924853746107,0.000139200773612,0.9825896497493728,0.0107010153736721,0.0010314458656411,69.32699692587269,0.028664093927703,0.204081632653061,Reject H0,Reject H0,Reject H0,0.0051020470660478,0.0321526072764822,-0.0078265417931243,0.0001384979361986,0.9773970077900616,0.0106564443225316,0.0012592832619851,66.51513226925947,0.0317504621258873,0.204081632653061,Reject H0,Reject H0,Reject H0,0.0051021210898363,0.0352250606249682,-0.0080611427096194
DE UN Equity,0.00028192721972337015,0.9682835219650094,0.0160138892460226,0.0027187429742404,80.03457545102027,0.0481215279713325,0.5128205128205123,Fail to reject H0,Fail to reject H0,Reject H0,0.0128229034307745,0.0602984306863555,-0.0086446449500122,0.0002849984097643,0.9762121653318258,0.0161258693537692,0.0021563341543285,70.4196308609789,0.0430407319281697,0.427350427350427,Reject H0,Fail to reject H0,Reject H0,0.0106869303179124,0.053132602402848,-0.0086875839512677,0.0002838857199609,0.9732292948481964,0.01608651874884,0.0023477912829001,68.72371582886889,0.0454787613394768,0.1709401709401708,Reject H0,Reject H0,Reject H0,0.0042735057431193,0.0496931574420016,-0.009053858201312,0.0002792852294231,0.9653330174004326,0.0159542121866421,0.0030569297560184,85.59140145621842,0.0506751860263927,0.3418803418803416,Reject H0,Reject H0,Reject H0,0.0085478319831814,0.058833823480555,-0.0087514345751058
BMY UN Equity,0.00015645156132600214,0.9819339283538928,0.01172945865318,0.0011612757137728,inf,0.0313593278771639,0.4945904173106641,Reject H0,Reject H0,Reject H0,0.0123691243822014,0.0442942075245684,-0.0081046942837758,0.000156437653075,0.9822157991128564,0.0117303574182509,0.0011658005287255,inf,0.0313027739244408,0.8655332302936622,Fail to reject H0,Reject H0,Reject H0,0.0216429692757778,0.0531576000496556,-0.0080174431383657,0.0001566515408855,0.9826323408614231,0.0117380715164301,0.0011065713626029,inf,0.0311682063573552,0.3709428129829981,Reject H0,Reject H0,Reject H0,0.0092748834249311,0.0411873700311452,-0.008344869364123,0.0001569675713234,0.9815937487172528,0.0117368013212573,0.0011198650247823,inf,0.0314624265434051,0.8037094281298293,Fail to reject H0,Reject H0,Reject H0,0.0200984232102046,0.0517642060666983,-0.008248707488722
CI UN Equity,0.0003720953957998447,0.9585863764124228,0.0168117610228696,0.0038226871224134,112.20938461881674,0.0521360687649235,1.2578616352201246,Fail to reject H0,Fail to reject H0,Fail to reject H0,0.03147195659402,0.0809664828158742,-0.0071957480590258,0.0003815713916291,0.9705716618340512,0.0170228227456777,0.0027679853534241,93.03078898796642,0.0461233503049712,0.5870020964360582,Fail to reject H0,Fail to reject H0,Fail to reject H0,0.0146857895644825,0.0586454557351563,-0.0082903983663525,0.0003849614294122,0.9717835880259048,0.017065408606112,0.0025381245766517,99.78500976739775,0.0459055788966115,0.5870020964360582,Fail to reject H0,Reject H0,Reject H0,0.0146808043705025,0.0584877681106837,-0.0087541323874007,0.0003905211585436,0.9741162479190836,0.0171386653911129,0.0021849883115549,84.65724313175289,0.0422194966346718,1.0062893081760995,Fail to reject H0,Reject H0,Reject H0,0.025169154353993,0.0647475451406909,-0.0084488337984349
ABNB UW Equity,0.0005909693720171085,0.9631450115871676,0.0231691264987543,0.0046463067855226,59.59384635730535,0.06313340261525,0.3571428571428568,Reject H0,Reject H0,Reject H0,0.0089509738139939,0.0693197451212308,-0.0077094477578954,0.0005938973744376,0.9707400360158585,0.0232938441765528,0.0040261155328627,54.751773188990754,0.0577438924211613,0.446428571428571,Reject H0,Reject H0,Reject H0,0.0111837119005877,0.0660255916891078,-0.0077956320180173,0.0005854984193599,0.9628733328930408,0.0231178194232324,0.0048690044651915,62.15430892413882,0.065471916358183,0.0,Fail to reject H0,Reject H0,Fail to reject H0,0.0,0.0638647255324763,-0.008251782622371,0.0005800400082452,0.9530438333967348,0.0229337983258667,0.0058481148905437,54.76695967936134,0.0712727391480451,0.3571428571428568,Reject H0,Reject H0,Reject H0,0.0089313082161591,0.0776448046976127,-0.007516697903447
MMC UN Equity,0.00019476606608858756,0.9773762546011864,0.0122107154358636,0.0014060083900856,80.18466761937817,0.033997971315906,0.9160305343511442,Fail to reject H0,Reject H0,Fail to reject H0,0.0229063388283255,0.054474331506394,-0.0081153460698026,0.0001962792673594,0.9839247274590278,0.012276778363894,0.0010744857421682,67.75379275597201,0.0290609576016232,0.9160305343511442,Fail to reject H0,Reject H0,Fail to reject H0,0.0229088461863365,0.0494700309334953,-0.0074448630655445,0.0001957715758455,0.977008036080772,0.0122245540011882,0.0013230273906609,73.96601570491568,0.0335975779240804,0.6106870229007628,Fail to reject H0,Reject H0,Reject H0,0.0152735655793939,0.0466977381879462,-0.0083124330409534,0.0001941667130788,0.9747404960875145,0.0121883386948414,0.0015266184580621,71.36630484368038,0.0360000245306025,0.6106870229007628,Fail to reject H0,Reject H0,Reject H0,0.0152729075057797,0.049082242972242,-0.0084780535479282
CVS UN Equity,0.00023949046798844875,0.9752096055301656,0.0145477595098314,0.0019195668778213,inf,0.0394844675254164,0.8862629246676507,Fail to reject H0,Reject H0,Reject H0,0.0221691576715033,0.0611333965882953,-0.008095047600574,0.0002405617528593,0.9812773973449048,0.0146116989172876,0.0015820292321187,inf,0.0348456871931577,1.3589364844903975,Fail to reject H0,Reject H0,Reject H0,0.0339847200318237,0.0678803206774188,-0.007581588428762,0.0002403068356424,0.980417758475134,0.0146024713442907,0.0016149953702921,inf,0.0373843959649284,0.2363367799113735,Reject H0,Reject H0,Reject H0,0.0059096931390082,0.0435230344060326,-0.0087294902107486,0.000241283708549,0.9796209110425276,0.0146090682917327,0.0016160687850347,inf,0.0372562491098574,0.472673559822747,Reject H0,Reject H0,Reject H0,0.0118309211378786,0.0488709423358797,-0.00843973505791
MDLZ UW Equity,0.00013269727653987252,0.9841067646277862,0.010734735980013,0.0009086639934738,inf,0.0276362553147947,0.7174887892376676,Fail to reject H0,Reject H0,Reject H0,0.0179425852255465,0.0446950681028557,-0.0075928539797392,0.0001324400657318,0.9854595788913528,0.0107400906852124,0.0008874604807928,inf,0.0266137104975441,1.0762331838565014,Fail to reject H0,Reject H0,Fail to reject H0,0.0269138090001373,0.0524410040111565,-0.0072003185590706,0.0001325926483822,0.9862407341910644,0.0107465151336336,0.0008505389911633,inf,0.0267367060690597,0.5381165919282507,Fail to reject H0,Reject H0,Reject H0,0.0134531703843735,0.0396644202471904,-0.0077063195025143,0.0001326672518581,0.9825078983455386,0.0107279674043231,0.0009632531378118,inf,0.0288448572880083,0.7174887892376676,Fail to reject H0,Reject H0,Reject H0,0.0179408156479536,0.0459501961643651,-0.0078855715359644
BSX UN Equity,0.0001679827341241257,0.9630003565362666,0.0120582486865354,0.0022018303701114,55.06966243303147,0.0444361410372595,0.4928131416837777,Reject H0,Reject H0,Reject H0,0.012322552815116,0.0548268009192335,-0.0090789041332958,0.0001700838630971,0.9756639531839094,0.0121781113642513,0.0015950236007929,46.01996648247897,0.0368395950785315,0.5749486652977407,Fail to reject H0,Reject H0,Reject H0,0.0143747138625336,0.0493317407264212,-0.0085895956345807,0.0001716742504261,0.9798762988711236,0.0122324543191789,0.0013211312107896,41.07307918070272,0.0340261367499945,0.4928131416837777,Reject H0,Reject H0,Reject H0,0.0123209017696169,0.0444515201199197,-0.0086221989514368,0.0001717780761352,0.9770007155691492,0.0122134466377607,0.0014312154629212,42.41206571327498,0.0351718851753617,0.4928131416837777,Reject H0,Reject H0,Reject H0,0.0123259958640256,0.0454389821274842,-0.0084323746700825
ADI UW Equity,0.0002980991227563928,0.972887927929112,0.0164626222292408,0.0024518354319347,77.7148897951237,0.0449919383713227,0.994475138121546,Fail to reject H0,Fail to reject H0,Fail to reject H0,0.0248727339423948,0.0682552281253742,-0.0080948958389875,0.0002970330165535,0.9691351128094274,0.0164133015984706,0.0026864863205243,82.09993903972101,0.0471657920336429,1.2154696132596674,Fail to reject H0,Reject H0,Fail to reject H0,0.0304019224039504,0.0758394945317039,-0.0080803574919856,0.000299736786802,0.9746050650078922,0.0165000451380616,0.0022330159111142,77.20117784420547,0.0440381626144429,0.4419889502762427,Fail to reject H0,Reject H0,Reject H0,0.0110561905869846,0.0539929042564527,-0.0087042210038617,0.0002955616318548,0.967362627891689,0.0163792375921693,0.0028412345894131,80.9971493323682,0.0500234744507489,0.4419889502762427,Fail to reject H0,Reject H0,Reject H0,0.0110572290090548,0.0599774826393194,-0.0087268415146813
KLAC UW Equity,0.0004632222746713742,0.9457333151187304,0.0207936303909684,0.0061339282421426,388.40915050491947,0.0736460162852576,0.3037974683544301,Reject H0,Fail to reject H0,Reject H0,0.0075949664532036,0.0783966967091183,-0.0074131694073525,0.0004741250713126,0.9580613033750772,0.0210567518482813,0.0047338585467536,338.6688684744321,0.0639598354826323,0.4050632911392401,Reject H0,Reject H0,Reject H0,0.0101269479805316,0.0711914770835346,-0.0079955563649444,0.0004843293926007,0.9707344678274304,0.0213090235312047,0.0035349678621539,264.1757738633762,0.0554764601448964,0.4050632911392401,Reject H0,Reject H0,Reject H0,0.0101277183769964,0.0625341905510113,-0.0086178962371239,0.0004803525222361,0.9665666424636292,0.0212183991510757,0.0039775126912026,292.7300325621535,0.059067325424751,0.20253164556962,Reject H0,Reject H0,Reject H0,0.0050658871648414,0.061324028877624,-0.0084938269190238
GILD UW Equity,0.00021906999958387117,0.9665560498262208,0.0134661678543176,0.0023249622978331,inf,0.0450547536423489,0.5301914580265091,Reject H0,Fail to reject H0,Fail to reject H0,0.0132723389127797,0.0576203143048772,-0.0086402735150325,0.0002232662278041,0.9781042082059752,0.0136139308311518,0.0015494121038527,inf,0.0359396033221842,1.3549337260677454,Fail to reject H0,Reject H0,Reject H0,0.0338884951618272,0.0684891065319444,-0.0080106091117091,0.0002235328603043,0.9818195626402206,0.01364918943136,0.0013731736708654,inf,0.0343407884822577,0.3534609720176727,Reject H0,Reject H0,Reject H0,0.0088431191495262,0.0427241303926279,-0.0084133711346372,0.0002249819137705,0.9817582628538992,0.0136642474584316,0.0013129850643223,inf,0.0334631447367616,0.7658321060382909,Fail to reject H0,Reject H0,Reject H0,0.0191619369670418,0.0516541015094968,-0.0081822812807254
FI UN Equity,0.00030580514999008337,0.9702664776871156,0.0148571873632683,0.0023360531954211,inf,0.0420341138964074,0.9546539379474932,Fail to reject H0,Fail to reject H0,Fail to reject H0,0.0238744639623886,0.0630652617091502,-0.0079082132379863,0.0003049231673923,0.9664069414769564,0.0147988085807839,0.0026277320411063,inf,0.0418375358657191,1.718377088305488,Reject H0,Reject H0,Reject H0,0.0429635645942995,0.0819742358984427,-0.007029375414424,0.0003047898830793,0.9658071411239034,0.0148130213575831,0.0026140120565906,inf,0.0466999610987918,0.1909307875894986,Reject H0,Reject H0,Reject H0,0.0047733009926859,0.0493449367849075,-0.0091323147166232,0.0003064986864925,0.9603235429384128,0.0147824934283936,0.0026877373695737,inf,0.0483265308193696,0.1909307875894986,Reject H0,Reject H0,Reject H0,0.0047760094664975,0.0508721340679168,-0.0090462600775196
MU UW Equity,0.0005607721305220497,0.9573270157668384,0.0225735946431811,0.0051041796561631,25.68374392049782,0.0663755469732078,0.1709401709401708,Reject H0,Reject H0,Reject H0,0.0042743385681722,0.0688639714156911,-0.0078282024864996,0.0005678351336229,0.9719779805980951,0.0228096957802553,0.0039218571919773,22.07138283036448,0.0555689470227643,0.7977207977207971,Fail to reject H0,Reject H0,Reject H0,0.0199453720407375,0.0728954220154517,-0.007792863095812,0.0005695762568618,0.9702555018588236,0.0228110630574291,0.0039759456876803,20.981219684436304,0.0578258074710321,0.0,Fail to reject H0,Reject H0,Fail to reject H0,0.0,0.0562739104310682,-0.0084967500653145,0.0005698702584203,0.9655385300710124,0.0227618290178624,0.0041773238988857,23.463275016995272,0.0598664312183319,0.2849002849002847,Reject H0,Reject H0,Reject H0,0.0071233479019821,0.0649440808226752,-0.0083152074526943
AMT UN Equity,0.00031271165312362465,0.980214244914055,0.0163430517740187,0.001652590016357,71.24947485057805,0.0364361104698272,0.4968944099378877,Fail to reject H0,Reject H0,Reject H0,0.0124223765710118,0.0454575955527717,-0.0083834979042301,0.0003111354615354,0.9760260608189322,0.016290467575348,0.0019398750320613,78.08787839300062,0.0397612133122284,0.2484472049689438,Fail to reject H0,Reject H0,Fail to reject H0,0.0062112112172921,0.0426622329067741,-0.0085225379332489,0.0003116026877201,0.979656187201368,0.0163267463788967,0.0017778759533209,70.05897983400322,0.0388002518063674,0.0,Fail to reject H0,Reject H0,Fail to reject H0,0.0,0.0356751949177607,-0.0087907255505427,0.0003132249247659,0.9797821849116688,0.016349974958116,0.0015993288913792,68.40587930899432,0.0370269990203014,0.0,Fail to reject H0,Reject H0,Fail to reject H0,0.0,0.0339019421316946,-0.0087618241600181
ZTS UN Equity,0.00045565599874840057,0.968363403998302,0.0200917340974283,0.003484270129614,inf,0.0520904627541123,1.992337164750956,Reject H0,Fail to reject H0,Fail to reject H0,0.0498223998275125,0.0995066255268522,-0.0073240826108194,0.0004593104091485,0.9691704629234408,0.0201229890143208,0.003107445103856,inf,0.0466823900361863,4.137931034482755,Reject H0,Fail to reject H0,Reject H0,0.1034839292173313,0.1462163839688137,-0.0059214342423071,0.0004576672552201,0.9706734367292692,0.0201390564916365,0.003231018712554,inf,0.0522472148522038,0.3065134099616856,Reject H0,Reject H0,Reject H0,0.0076630619681949,0.0592088544789082,-0.0087888910980076,0.0004604820115597,0.9746438680730924,0.0202014742124359,0.0029289022844291,inf,0.0481933124836366,0.9195402298850568,Fail to reject H0,Reject H0,Fail to reject H0,0.0229898699667823,0.0698523341695617,-0.0082895858739568
SNPS UW Equity,0.0004308255702113693,0.9684468605824322,0.0193694910429283,0.0033178083183699,178.93617656972984,0.0524003923816716,0.6417112299465235,Fail to reject H0,Fail to reject H0,Fail to reject H0,0.0160433467284833,0.0655047525025737,-0.0084138114747706,0.0004347534274504,0.9759202107264734,0.019486442086433,0.0027503816462805,159.29008929525378,0.0466218672165696,1.283422459893047,Fail to reject H0,Reject H0,Fail to reject H0,0.0320886891580642,0.0750580641800988,-0.0081596443636734,0.0004343589378493,0.9730098158247106,0.0194589633507943,0.0029318409573223,133.48079562611196,0.0490172072002512,0.2139037433155078,Reject H0,Reject H0,Reject H0,0.0053484683606277,0.0518549672251946,-0.0086394651027468,0.0004348246314749,0.971003906241042,0.0194382874153829,0.0029987945772086,104.50663750509898,0.049885552677499,0.6417112299465235,Fail to reject H0,Fail to reject H0,Fail to reject H0,0.016046087537032,0.062900594245392,-0.0083968607141953
ANET UN Equity,0.0008879913137016161,0.9533196787643398,0.0254194727879244,0.0055820490037205,81.69422189940902,0.0678482096582225,0.835266821345707,Fail to reject H0,Reject H0,Reject H0,0.0208883820672782,0.0836871701295555,-0.0075118052041792,0.0008759491211719,0.9608088338718525,0.0254209350005944,0.0055034880644709,81.81790374147874,0.0651241382889075,0.9280742459396744,Fail to reject H0,Reject H0,Reject H0,0.0232115180901158,0.0830455711385519,-0.0071553167922416,0.0008771278627181,0.9546045515580912,0.0253524046180919,0.006003868184379,73.18606636607953,0.0708704230474192,0.1856148491879349,Reject H0,Reject H0,Reject H0,0.0046415657053023,0.0716181113489117,-0.0077618499303141,0.0008906797395014,0.9532634375747508,0.0254351848008036,0.0054835558352266,96.38358133249804,0.0681290971572368,0.1856148491879349,Reject H0,Reject H0,Reject H0,0.004641396875437,0.0688821471928166,-0.0077918109915422
HCA UN Equity,0.00020650730191850705,0.9136389417909698,0.013350669620105,0.0062339595202701,223.55486124478475,0.0672360382295677,1.4742014742014729,Fail to reject H0,Fail to reject H0,Fail to reject H0,0.0368589385398369,0.1023376939916124,-0.0061838336797041,0.000230473639218,0.9831553624546427,0.0143026977995434,0.0014186754263529,99.03099595800016,0.0306784757678918,5.307125307125302,Reject H0,Reject H0,Reject H0,0.1327153265073209,0.158592693083957,-0.0054845142774452,0.0002260775970743,0.9710792219017798,0.0141481656347224,0.0021948242109477,121.65307768263725,0.0441890692509681,0.3931203931203927,Reject H0,Reject H0,Reject H0,0.0098285706670843,0.052708118173228,-0.009069332576427,0.0002224709240647,0.9596910001398976,0.0139984206219639,0.0029362769065181,149.0335559981215,0.0496845408340117,0.4914004914004909,Fail to reject H0,Reject H0,Reject H0,0.0122886404605042,0.0605097757949294,-0.0085402867137593
EQIX UW Equity,0.00023255786737131934,0.9812454859524972,0.0143024270587317,0.0014600279589685,29.16754740900775,0.034624933097942,0.2409638554216865,Fail to reject H0,Reject H0,Fail to reject H0,0.0060241018323388,0.0384277033509802,-0.0083447519500636,0.000232570373217,0.9831316255663586,0.0143162172142556,0.0013842447148007,28.448450574777688,0.0320213756885884,1.4457831325301191,Fail to reject H0,Fail to reject H0,Fail to reject H0,0.0361548384097486,0.0647633699809607,-0.0071429667511518,0.0002321871004598,0.9807929624737683,0.0142943101851148,0.0014847641234958,32.32236855049581,0.035902614544027,0.0,Fail to reject H0,Reject H0,Fail to reject H0,0.0,0.0338621290232841,-0.0087487523414472,0.0002338153916915,0.9833770095765338,0.0143378828708256,0.0012541566423971,25.894750714805404,0.0327884849521998,0.0,Fail to reject H0,Reject H0,Fail to reject H0,0.0,0.0307479994314569,-0.0084479460543304
WM UN Equity,0.00010157232255252658,0.956669465290138,0.0092183028524188,0.0018877036712118,inf,0.0409249490569537,0.1955990220048898,Reject H0,Reject H0,Reject H0,0.0048907907494721,0.0439981659903409,-0.0089820267853398,0.0001026550903578,0.9565871503847836,0.0092432040296982,0.0017707609163466,inf,0.037778702865488,0.8801955990220042,Fail to reject H0,Reject H0,Reject H0,0.0220058830214132,0.0577443353380325,-0.0082656654711173,0.000104829801489,0.9801001596248656,0.0094013920077645,0.0009801841714729,inf,0.0290157632448061,0.1955990220048898,Reject H0,Reject H0,Reject H0,0.0048909822832007,0.0320816349057906,-0.0081255532492914,0.0001046739131311,0.9765808377492482,0.0093789083531072,0.0010556170520942,inf,0.0302142061062172,0.1955990220048898,Reject H0,Reject H0,Reject H0,0.0048914224805985,0.0332670414613364,-0.0082060222607616
SHW UN Equity,0.0001823099871828284,0.946524980319937,0.0130116507567959,0.0038054082712617,46.70165594810056,0.054973271583472,0.8268733850129192,Fail to reject H0,Reject H0,Fail to reject H0,0.0206888736822304,0.0723848177894811,-0.0076021130990746,0.000190345322084,0.9735972840952744,0.0133537980109652,0.0020589243481763,33.24739612424742,0.0392669224399479,1.4470284237726083,Fail to reject H0,Reject H0,Reject H0,0.0361870720053741,0.0718558549746322,-0.0074542783649797,0.0001920110841486,0.9735024568421066,0.0133846547639514,0.0018735682991082,31.871100143168952,0.041127192745569,0.4134366925064596,Reject H0,Reject H0,Reject H0,0.0103369904874586,0.0485952978427055,-0.0090689591013549,0.0001889473240088,0.965190617339392,0.0132709555009704,0.0024721759995415,40.14384389438781,0.0464645560027782,0.4134366925064596,Reject H0,Reject H0,Reject H0,0.0103371519190261,0.0539249082427823,-0.0089120981634268
CDNS UW Equity,0.0003314331324309999,0.93041438088082,0.0171165533823759,0.0062653753980079,79.39492879210759,0.0751266419568904,0.0,Fail to reject H0,Reject H0,Fail to reject H0,0.0,0.0734039289764375,-0.0074934599376415,0.0003515363562461,0.967182069469334,0.0177227025525189,0.0031950140762035,54.96957782910879,0.0489745046775964,1.7847769028871374,Reject H0,Reject H0,Reject H0,0.0446254104435708,0.0905489143942649,-0.0073449176715131,0.0003559639095563,0.9765227295126876,0.0178742156222462,0.0024521496894655,45.93681249341514,0.0453496338454117,0.0,Fail to reject H0,Reject H0,Fail to reject H0,0.0,0.0436269208649588,-0.0088468723610647,0.0003557687696594,0.9718249285141952,0.0178225182575598,0.0027016999795907,46.95232074201331,0.0477811182027996,0.5249343832020992,Fail to reject H0,Reject H0,Reject H0,0.0131234191722414,0.0586823646260559,-0.0086845079437289
ICE UN Equity,0.00014040502473719886,0.9754531991105914,0.0112088179337557,0.0014590334916009,inf,0.0348615362334919,0.5936920222634503,Fail to reject H0,Fail to reject H0,Reject H0,0.0148440044212339,0.0482708469696069,-0.008329055657441,0.0001413681738243,0.9801182438851868,0.011252694856475,0.0012353190181422,inf,0.0321469954597204,0.519480519480519,Reject H0,Reject H0,Reject H0,0.0129890755535199,0.0437368762617274,-0.0081490631180328,0.0001417282778151,0.9807207145114634,0.0112648739082393,0.0011525241863921,inf,0.0318036647406058,0.1484230055658625,Reject H0,Reject H0,Reject H0,0.0037107273406908,0.0344163126647522,-0.008459447500806,0.0001406406184506,0.9759864278556708,0.0112154335080639,0.0014133395369481,inf,0.0350784376694648,0.1484230055658625,Reject H0,Reject H0,Reject H0,0.0037113630017719,0.0376614387415202,-0.0086403268757808
CME UW Equity,0.00013796932995591767,0.9751750159427846,0.0111321733137679,0.0014477190594007,68.46289963214075,0.0346086101200344,0.3669724770642198,Reject H0,Fail to reject H0,Reject H0,0.009174446217192,0.0427745447475523,-0.0083611171739583,0.0001378224077315,0.9728053726362356,0.0111183171079015,0.0015223713723115,70.29695219888109,0.0350478084148219,0.8073394495412837,Fail to reject H0,Reject H0,Fail to reject H0,0.0201842422662607,0.0539999410067178,-0.0081820602935963,0.0001397249958116,0.9836890729519014,0.0112165243452843,0.0010262246874044,53.16723826228949,0.0296674106002815,0.1467889908256879,Reject H0,Reject H0,Reject H0,0.0036697615440854,0.0324620857472611,-0.0081707660576795,0.0001386024459645,0.976161844049238,0.0111533561398932,0.0013379349365294,53.39219674194735,0.0340952874037192,0.1467889908256879,Reject H0,Reject H0,Reject H0,0.0036702607081869,0.036857741681917,-0.0085870988247688
ITW UN Equity,0.00021213596883484597,0.979937663537586,0.0138179931313738,0.0015210025421456,89.1535477987459,0.0358917185673827,1.3289036544850488,Fail to reject H0,Fail to reject H0,Fail to reject H0,0.0332307486025758,0.0671994711060224,-0.0081792339035305,0.0002128946084702,0.9828039973469384,0.0138491317750218,0.001400836554305,83.67595833672092,0.0338302314901256,1.4617940199335535,Fail to reject H0,Reject H0,Reject H0,0.0365589313835457,0.0682117179343849,-0.0077045630055863,0.0002118783203644,0.9791615054057774,0.0138065044437542,0.0015665398314885,83.62182557556591,0.0367057406078384,0.7973421926910292,Fail to reject H0,Reject H0,Fail to reject H0,0.0199343767567413,0.0554905851958347,-0.0085922889167733,0.0002115655295737,0.9771056229902416,0.0137872447837991,0.001668896005072,90.78662564729512,0.0383298436044358,0.7973421926910292,Fail to reject H0,Reject H0,Fail to reject H0,0.0199369913515097,0.0569405151995173,-0.0087006211540134
